!!!!SEGMENT: pl-cz-ii-84_fertner-salve-regina-F.krn
!!!id: 18xx:59
!!!COM: Fertner, Karol
!!!OTL: Salve Regina in F
!!!ONB: Offertorium
!!!PDT:
!!!SMS-siglum: PL-CZ
!!!SMS-shelfmark: II-84
!!!NIFC-rismID:
!!!URL-scan: http://repozytorium.nifc.pl/skany/pl-cz-nut--ii-84
!!!ONB-nifc:
!!!OMD: Adagio
!!!ENC: Andrzej Kubiczek
!!!END:2020-02-02
**kern	**fba	**dynam	**kern	**text	**dynam	**kern	**text	**dynam	**kern	**dynam	**kern	**dynam	**kern	**dynam	**kern	**dynam	**kern	**dynam	**kern	**dynam	**kern	**dynam
*part10	*	*part10	*part9	*part9	*part9	*part8	*part8	*part8	*part7	*part7	*part6	*part6	*part5	*part5	*part4	*part4	*part3	*part3	*part2	*part2	*part1	*part1
*staff10	*	*	*staff9	*staff9	*	*staff8	*staff8	*	*staff7	*	*staff6	*	*staff5	*	*staff4	*	*staff3	*	*staff2	*	*staff1	*
*I"Basso	*	*	*I"Tenore	*	*	*I"Canto	*	*	*I"Alto Viola	*	*I"Violino II	*	*I"Violino I	*	*I"Corno I et II in C	*	*I"Clarinetto II	*	*I"Clarinetto I	*	*I"Flauto	*
*I'Bc	*	*	*I'T	*	*	*I'C	*	*	*I'Va	*	*I'Vn II	*	*I'Vn I	*	*I'Cor I et II	*	*I'Cl II	*	*I'Cl I	*	*I'Fl	*
*clefF4	*	*	*clefC4	*	*	*clefC1	*	*	*clefC3	*	*clefG2	*	*clefG2	*	*clefG2	*	*clefG2	*	*clefG2	*	*clefG2	*
*Trd0c0	*	*	*	*	*	*	*	*	*	*	*	*	*	*	*Trd0c0	*	*	*	*	*	*	*
*k[b-]	*	*	*k[b-]	*	*	*k[b-]	*	*	*k[b-]	*	*k[b-]	*	*k[b-]	*	*k[b-]	*	*k[b-]	*	*k[b-]	*	*k[b-]	*
*M4/4	*	*	*M4/4	*	*	*M4/4	*	*	*M4/4	*	*M4/4	*	*M4/4	*	*M4/4	*	*M4/4	*	*M4/4	*	*M4/4	*
*met(c)	*	*	*met(c)	*	*	*met(c)	*	*	*met(c)	*	*met(c)	*	*met(c)	*	*met(c)	*	*met(c)	*	*met(c)	*	*met(c)	*
=1	=1	=1	=1	=1	=1	=1	=1	=1	=1	=1	=1	=1	=1	=1	=1	=1	=1	=1	=1	=1	=1	=1
!LO:TX:a:i:t=Adagio	!	!	!	!	!	!	!	!	!LO:TX:a:i:t=Adagio	!	!	!	!	!	!	!	!	!	!	!	!	!
!	!	!	!	!	!	!	!	!	!LO:SIC:v=niejednoznaczny zapis akcent/diminuendo	!	!LO:SIC:v=niejednoznaczny zapis akcent/diminuendo	!	!	!	!	!	!	!	!LO:SIC:v=niejednoznaczny zapis akcent/diminuendo	!	!LO:TX:a:i:t=Adagio	!
*	*	*	*	*	*	*	*	*	*	*	*	*	*	*	*	*	*	*	*	*	*	*
!	!	!LO:DY:b	!LO:TX:a:i:t=Adagio	!	!	!LO:TX:a:i:t=Adagio	!	!	!	!	!LO:TX:a:i:t=Adagio	!	!LO:TX:a:i:t=Adagio	!	!	!	!LO:TX:a:i:t=Adagio	!	!LO:TX:a:i:t=Adagio	!	!	!
4.F\	.	f:	1r	.	.	1r	.	.	4.f\	f>	4.f/	f>	4.ff\^<	f	1f/	f	4.ff\	f	4.ff\	f>	4.fff\^	>
!	!	!LO:HP:b	!	!	!	!	!	!	!	!	!	!	!	!	!	!	!	!	!	!	!	!
8E\	.	>	.	.	.	.	.	.	8e\	.	8e/	.	8ee\	.	.	.	8ee\	.	8ee\	.	8eee\	f]
8F\L	.	.	.	.	.	.	.	.	8f\L	.	8f/L	.	8ff\L	[	.	.	8ff\L	[	8ff\L	.	8fff\L	.
8C#X/J	.	.	.	.	.	.	.	.	8c#X\J	]	8c#X/J	.	8cc#X\J	.	.	.	8cc#X\J	.	8cc#X\J	.	8ccc#X\J	.
8DL\	.	]	.	.	.	.	.	.	8d\L	.	8d/L	]	8dd\L	.	.	.	8dd\L	.	8dd\L	]	8ddd\L	.
8AA/J	.	.	.	.	.	.	.	.	8AJ\	.	8A/J	.	8a/J	.	.	.	8a/J	.	8a/J	.	8aa\J	.
=2	=2	=2	=2	=2	=2	=2	=2	=2	=2	=2	=2	=2	=2	=2	=	=2	=2	=2	=2	=2	=2	=2
!	!	!LO:HP:b	!	!	!	!	!	!	!	!	!	!	!LO:SIC:v=niejednoznaczny zapis akcent/diminuendo	!	!	!	!	!	!	!	!LO:SIC:v=niejednoznaczny zapis akcent/diminuendo	!
4.c\	.	>	1r	.	.	1r	.	.	4.c\	>	4.c/	>	4.cc\	>	4.cc\	.	4.cc\	>	4.cc\	>	4.ccc\^<	.
!LO:SIC:v= b zamiast h	!	!	!	!	!	!	!	!	!	!	!	!	!	!	!	!	!	!	!	!	!LO:SIC:v=b zamiast h	!
8B-\	.	.	.	.	.	.	.	.	8Bn\	.	8Bn/	.	8bn\	.	8bn\	.	8bn\	.	8bn\	.	8bb-\	.
!	!	!	!	!	!	!	!	!	!	!	!LO:N:vis=4	!	!	!	!	!	!	!	!	!	!	!
8c\L	.	.	.	.	.	.	.	.	8cL\	]	8c/	.	8ccL\	]	8cc\L	.	8ccL\	]	8ccL\	.	8ccc\L	.
8G#X\J	.	.	.	.	.	.	.	.	8G#X/J	.	8G#X/	.	8g#X/J	.	8g#X/J	.	8g#X/J	.	8g#X/J	]	8gg#X\J	.
8A\L	.	]	.	.	.	.	.	.	8A/L	.	8A/L	]	8aL\	.	8a/L	.	8aL\	.	8aL\	.	8aa\L	.
8F\J	.	.	.	.	.	.	.	.	8f\J	.	8f/J	.	8f/J	.	8f/J	.	8f/J	.	8f/J	.	8ff\J	.
=3	=3	=3	=3	=3	=3	=3	=3	=3	=3	=3	=3	=3	=3	=3	=3	=3	=3	=3	=3	=3	=3	=3
*	*	*	*	*	*	*	*	*	*	*	*	*	*	*	*^	*	*	*	*	*	*	*
8B-\L	.	.	1r	.	.	1r	.	.	8B-L\	.	8B-/L	.	(>8b-X\L	.	8b-/L	1c\	<	8b-L\	.	8.bb-\L	.	8bb-\L	.
8A\J	.	.	.	.	.	.	.	.	8A/J	.	8A/J	.	8a/J	.	8a/J	.	.	8a/J	.	.	.	8aa\J	.
.	.	.	.	.	.	.	.	.	.	.	.	.	.	.	.	.	.	.	.	16aa\Jk	.	.	.
4.G\	.	.	.	.	.	.	.	.	4.G\	.	4.G/	<	4.g\)	.	4.g/	.	.	4.g\	.	4.gg\	.	4.gg\	.
!	!	!LO:HP:b	!	!	!	!	!	!	!	!	!	!	!	!	!	!	!	!	!	!	!	!	!
8C/L	.	<	.	.	.	.	.	.	8C/L	<	8c/L	.	8cc\L	<	8c/L	.	.	8cL\	.	8cc\'L	.	8ccc\L	<
8D\	.	.	.	.	.	.	.	.	8D/	.	8d/	.	8dd\	.	8d/	.	.	8d/	.	8dd\'	.	8ddd\	.
8E\J	.	[[	.	.	.	.	.	.	8E/J	[[	8e/J	[	8ee\J	[[	8e/J	.	.	8e/J	.	8ee\'J	.	8eee\J	[[
=4	=4	=4	=4	=4	=4	=4	=4	=4	=4	=4	=4	=4	=4	=4	=4	=4	=4	=4	=4	=4	=4	=4	=4
4F\	.	.	2r;	.	.	1r;	.	.	4F/	[	4A/ 4f/	[	4a\ 4ff\	[	4f/	4f\	[	4f\	.	4ff\	.	4fff\	[
!LO:N:vis=16	!	!	!	!	!	!	!	!	!	!	!	!	!	!	!	!	!	!	!	!	!	!LO:SIC:v=pauza szesnastkowa	!
!	!	!	!	!	!	!	!	!	!	!	!	!	!	!	!	!	!	!LO:N:vis=16	!	!LO:N:vis=16	!	!LO:N:vis=16	!
8.r	.	.	.	.	.	.	.	.	8.r	.	8.r	.	8.r	.	8.r	8.ryy	.	8.r	.	8.r	.	8.r	.
16FF/	.	.	.	.	.	.	.	.	16F/	.	16A/ 16f/	.	16a\ 16ff\	.	16f/	16fyy\	.	16a\	.	16aa\	.	16fff\	.
.	.	.	.	.	.	.	.	.	.	.	.	f	.	.	.	.	.	.	.	.	.	.	.
.	.	.	.	.	.	.	.	.	.	f	.	.	.	.	.	.	.	.	.	.	.	.	.
!	!	!LO:DY:b	!	!	!	!	!	!	!	!	!	!	!	!	!	!	!	!	!	!	!	!	!
4F\;	.	f	4r	.	.	.	.	.	4F/;	.	4A/; 4f/	.	4a\; 4ff\	f	4f/;	4fyy\	.	4f;\	.	4ff\;	.	4fff\;	.
4r	.	.	8C/L	Sal-	.	.	.	.	4r	.	4r	.	4r	.	4r	4ryy	.	4r	.	4r	.	4r	.
.	.	.	8F/J	-ve	.	.	.	.	.	.	.	.	.	.	.	.	.	.	.	.	.	.	.
=5	=5	=5	=5	=5	=5	=5	=5	=5	=5	=5	=5	=5	=5	=5	=5	=5	=5	=5	=5	=5	=5	=5	=5
!	!	!LO:DY:b	!	!	!	!	!	!	!LO:PB:g=original	!	!	!	!LO:PB:g=original	!	!	!	!	!	!	!	!	!LO:PB:g=original	!
4F\	.	p	4A\	Sal-	.	1r	.	.	4A\ 4f\	p	4f/ 4a/	p:	4f/ 4a/	p:	1r	1ryy	.	4f/	.	4a/	.	1r	.
4FF/	.	.	4A\	-ve	.	.	.	.	4A\ 4f\	.	4f/ 4a/	.	4f/ 4a/	.	.	.	.	4f/	.	4a/	.	.	.
4F\	.	.	8r	.	.	.	.	.	4A\ 4f\	.	4f/ 4a/	.	8r	.	.	.	.	4f/	.	4a/	.	.	.
.	.	.	8F\	Sal-	.	.	.	.	.	.	.	.	8f/	.	.	.	.	.	.	.	.	.	.
4r	.	.	8G\	-ve	.	.	.	.	4r	.	4r	.	8g/	.	.	.	.	4r	.	4r	.	.	.
.	.	.	8A\	Re-	.	.	.	.	.	.	.	.	8a/	.	.	.	.	.	.	.	.	.	.
=6	=6	=6	=6	=6	=6	=6	=6	=6	=6	=6	=6	=6	=6	=6	=6	=6	=6	=6	=6	=6	=6	=6	=6
!LO:PB:g=original	!	!	!	!	!	!	!	!	!	!	!LO:PB:g=original	!	!	!	!	!	!	!LO:PB:g=original	!	!LO:PB:g=original	!	!	!
4C\	.	.	4B-\	-gi-	.	1r	.	.	4c\ 4e\	.	4g\ 4b-\	.	4g/ 4b-/	.	1r	1ryy	.	4g/	.	4b-\	.	1r	.
4c\	.	.	4G\	-na	.	.	.	.	4c\ 4e\	.	4g\ 4b-\	.	4g/ 4b-/	.	.	.	.	4e/	.	4g\	.	.	.
4C\	.	.	4r	.	.	.	.	.	4c\ 4e\	.	4c/ 4e/	.	4c/	.	.	.	.	4e/	.	4g\	.	.	.
4r	.	.	8E/	Sal-	.	.	.	.	4r	.	4r	.	4r	.	.	.	.	4r	.	4r	.	.	.
.	.	.	8G/	-ve	.	.	.	.	.	.	.	.	.	.	.	.	.	.	.	.	.	.	.
=7	=7	=7	=7	=7	=7	=7	=7	=7	=7	=7	=7	=7	=7	=7	=7	=7	=7	=7	=7	=7	=7	=7	=7
!	!	!	!LO:PB:g=original	!	!	!	!	!	!	!	!	!	!	!	!	!	!	!	!	!	!	!	!
*	*	*	*	*	*	*	*	*	*rep	*	*	*	*	*	*	*	*	*	*	*	*	*	*
4C\	.	.	4B-\	Sal-	.	1r	.	.	4c\ 4e\	.	4g\ 4b-\	.	4g\ 4b-\	.	1r	1ryy	.	4g/	.	4b-\	.	1r	.
4c\	.	.	4B-\	-ve	.	.	.	.	4c\ 4e\	.	4g\ 4b-\	.	4g\ 4b-\	.	.	.	.	4g/	.	4b-\	.	.	.
4C\	.	.	8r	.	.	.	.	.	4c\ 4e\	.	4g\ 4b-\	.	8r	.	.	.	.	4g/	.	4b-\	.	.	.
.	.	.	8G\	Sal-	.	.	.	.	.	.	.	.	8g\	.	.	.	.	.	.	.	.	.	.
4r	.	.	8A\	-ve	.	.	.	.	4r	.	4r	.	8a\	.	.	.	.	4r	.	4r	.	.	.
.	.	.	8B-\	Re-	.	.	.	.	.	.	.	.	8b-\	.	.	.	.	.	.	.	.	.	.
*	*	*	*	*	*	*	*	*	*Xrep	*	*	*	*	*	*	*	*	*	*	*	*	*	*
=8	=8	=8	=8	=8	=8	=8	=8	=8	=8	=8	=8	=8	=8	=8	=8	=8	=8	=8	=8	=8	=8	=8	=8
4F\	.	.	4c\	-gi-	.	1r	.	.	4A\ 4f\	.	4f\ 4a\	.	4cc\	.	1r	1ryy	.	4a/	.	4cc\	.	1r	.
4FF/	.	.	4A\	-na	.	.	.	.	4A\ 4f\	.	4f\ 4a\	.	4a\	.	.	.	.	4f/	.	4a\	.	.	.
4F\	.	.	8r	.	.	.	.	.	4A\ 4f\	.	8A/ 8f/	.	8r	.	.	.	.	4f/	.	4a\	.	.	.
.	.	.	8F\	Ma-	.	.	.	.	.	.	8r	.	8f\	.	.	.	.	.	.	.	.	.	.
4r	.	.	8A\	.	.	.	.	.	4r	.	4r	.	8a\	.	.	.	.	4r	.	4r	.	.	.
.	.	.	8c\	-ter	.	.	.	.	.	.	.	.	8cc\	.	.	.	.	.	.	.	.	.	.
=9	=9	=9	=9	=9	=9	=9	=9	=9	=9	=9	=9	=9	=9	=9	=9	=9	=9	=9	=9	=9	=9	=9	=9
!	!	!	!	!	!	!	!	!	!	!	!	!	!LO:PB:g=original	!	!	!	!	!	!	!	!	!	!
!	!	!	!LO:SIC:v=niejednoznaczny zapis akcent/diminuendo	!	!	!	!	!	!	!	!	!	!LO:SIC:v=niejednoznaczny zapis akcent/diminuendo	!	!	!	!	!	!	!	!	!	!
1r	.	.	4.f\^	Mi-	.	1r	.	.	2F/ 2A/	.	2A/ 2f/	.	2a\^< 2ff\	.	1r	1ryy	.	1r	.	1r	.	1r	.
.	.	.	8e\	.	.	.	.	.	.	.	.	.	.	.	.	.	.	.	.	.	.	.	.
.	.	.	8d\	-se-	.	.	.	.	2r	.	2r	.	2r	.	.	.	.	.	.	.	.	.	.
.	.	.	8c\	.	.	.	.	.	.	.	.	.	.	.	.	.	.	.	.	.	.	.	.
.	.	.	8B-\	-ri	.	.	.	.	.	.	.	.	.	.	.	.	.	.	.	.	.	.	.
.	.	.	8A\	.	.	.	.	.	.	.	.	.	.	.	.	.	.	.	.	.	.	.	.
=10	=10	=10	=10	=10	=10	=10	=10	=10	=10	=10	=10	=10	=10	=10	=10	=10	=10	=10	=10	=10	=10	=10	=10
!	!	!	!LO:PB:g=original	!	!	!	!	!	!	!	!	!	!	!	!	!	!	!	!	!	!	!	!
.	.	.	.	.	.	.	.	.	.	.	.	.	8qf/	.	.	.	.	.	.	.	.	.	.
4B-\	8	.	4d\	cor-	.	1r	.	.	4B-/ 4d/	.	4B-/ 4d/	.	4dd\	.	1r	1ryy	.	4b-\	.	4dd\	.	1r	.
4BB-/	.	.	4d\	-die	.	.	.	.	4B-/ 4d/	.	4B-/ 4d/	.	4dd\	.	.	.	.	4b-\	.	4dd\	.	.	.
2r	.	.	8r	.	.	.	.	.	4c\ 4e\	.	4c/ 4e/	.	8r	.	.	.	.	8r	.	8r	.	.	.
.	.	.	8G\	vi-	.	.	.	.	.	.	.	.	(>8g/L	.	.	.	.	4.g\	.	(>8g/L	.	.	.
.	.	.	8d\	.	.	.	.	.	4r	.	4r	.	8dd\	.	.	.	.	.	.	8dd\	.	.	.
.	.	.	8c\	-ta	.	.	.	.	.	.	.	.	8cc\J)	.	.	.	.	.	.	8cc\J)	.	.	.
=11	=11	=11	=11	=11	=11	=11	=11	=11	=11	=11	=11	=11	=11	=11	=11	=11	=11	=11	=11	=11	=11	=11	=11
4F\	.	.	(>4.c\	dul-	.	1r	.	.	8r	.	8r	.	(>4.cc\	.	1r	1ryy	.	2.a\	.	(>4.cc\	.	1r	.
*	*	*	*	*	*	*	*	*	*tremolo	*	*tremolo	*	*	*	*	*	*	*	*	*	*	*	*
.	.	.	.	.	.	.	.	.	8A\L 8f\	.	8f/L 8a/	.	.	.	.	.	.	.	.	.	.	.	.
4FF/	.	.	.	.	.	.	.	.	8A\ 8f\	.	8f/ 8a/	.	.	.	.	.	.	.	.	.	.	.	.
.	.	.	8A\)	-ce-	.	.	.	.	8A\J 8f\	.	8f/J 8a/	.	8a\	.	.	.	.	.	.	8a\	.	.	.
4F\	.	.	4F/	-do	.	.	.	.	8A\L 8f\	.	8f/L 8a/	.	4f\)	.	.	.	.	.	.	4f\)	.	.	.
.	.	.	.	.	.	.	.	.	8A\ 8f\	.	8f/ 8a/	.	.	.	.	.	.	.	.	.	.	.	.
4r	.	.	8r	.	.	.	.	.	8A\ 8f\	.	8f/ 8a/	.	8r	.	.	.	.	4r	.	8r	.	.	.
.	.	.	8c\	et	.	.	.	.	8A\J 8f\	.	8f/J 8a/	.	8cc\	.	.	.	.	.	.	8cc\	.	.	.
=12	=12	=12	=12	=12	=12	=12	=12	=12	=12	=12	=12	=12	=12	=12	=12	=12	=12	=12	=12	=12	=12	=12	=12
!	!	!	!	!	!	!	!	!	!LO:PB:g=original	!	!	!	!	!	!LO:PB:g=original	!	!	!	!	!LO:PB:g=original	!	!	!
2C/	.	.	8.GL\	spes	.	1r	.	.	8r	.	8r	.	8.gL\	.	1cc/	1c\	.	2c/	.	8.gL\	.	1r	.
.	.	.	.	.	.	.	.	.	8c\L 8e\	.	8c/L 8e/	.	.	.	.	.	.	.	.	.	.	.	.
.	.	.	16A\Jk	.	.	.	.	.	.	.	.	.	16a/Jk	.	.	.	.	.	.	16a/Jk	.	.	.
.	.	.	8.B-\L	.	.	.	.	.	8c\ 8e\	.	8c/ 8e/	.	8.b-L\	.	.	.	.	.	.	8.b-L\	.	.	.
.	.	.	.	.	.	.	.	.	8c\J 8e\	.	8c/J 8e/	.	.	.	.	.	.	.	.	.	.	.	.
.	.	.	16A\Jk	.	.	.	.	.	.	.	.	.	16a/Jk	.	.	.	.	.	.	16a/Jk	.	.	.
2c\	.	.	8.d\L	no-	.	.	.	.	8c\L 8e\	.	8c/L 8e/	.	8.ddL\	.	.	.	.	4.cc\	.	8.ddL\	.	.	.
.	.	.	.	.	.	.	.	.	8c\ 8e\	.	8c/ 8e/	.	.	.	.	.	.	.	.	.	.	.	.
.	.	.	16c\Jk	.	.	.	.	.	.	.	.	.	16cc\Jk	.	.	.	.	.	.	16cc\Jk	.	.	.
.	.	.	8.B-\L	-stra	.	.	.	.	8c\ 8e\	.	8c/ 8e/	.	8.b-L\	.	.	.	.	.	.	8.b-L\	.	.	.
.	.	.	.	.	.	.	.	.	8c\J 8e\	.	8c/J 8e/	.	.	.	.	.	.	8c/	.	.	.	.	.
.	.	.	16G/Jk	.	.	.	.	.	.	.	.	.	16e/Jk	.	.	.	.	.	.	16g/Jk	.	.	.
=13	=13	=13	=13	=13	=13	=13	=13	=13	=13	=13	=13	=13	=13	=13	=13	=13	=13	=13	=13	=13	=13	=13	=13
!LO:PB:g=original	!	!	!	!	!	!	!	!	!	!	!LO:PB:g=original	!	!LO:PB:g=original	!	!	!	!	!LO:PB:g=original	!	!	!	!	!
!	!	!	!	!	!LO:DY:b	!	!	!	!	!	!	!	!	!	!	!	!	!	!	!	!	!	!
4F\	.	.	8.AL\	Sal-	f	1r	.	.	8A\ 8f\	.	8f/ 8a/	.	8c/ 8f/ 8a/	.	8f/	8f\	.	8f\	.	8a\	.	8.aa\L	.
.	.	.	.	.	.	.	.	.	8r	.	8r	.	8r	.	8r	8ryy	.	8r	.	8r	.	.	.
.	.	.	16F/Jk	.	.	.	.	.	.	.	.	.	.	.	.	.	.	.	.	.	.	16ff\Jk	.
.	.	.	.	.	.	.	.	.	.	.	.	.	.	.	.	.	.	.	.	.	.	.	p
4F\	.	.	8.c\L	.	.	.	.	.	8A\ 8f\	.	8f/ 8a/	.	8f/ 8a/	.	8a/	8f\	.	8a\	.	8cc\	.	8.ccc\L	.
.	.	.	.	.	.	.	.	.	8r	.	8r	.	8r	.	8r	8ryy	.	8r	.	8r	.	.	.
!	!	!	!LO:PB:g=original	!	!	!	!	!	!	!	!	!	!	!	!	!	!	!	!	!	!	!	!
.	.	.	16A\Jk	.	.	.	.	.	.	.	.	.	.	.	.	.	.	.	.	.	.	16aa\Jk	.
4F\	.	.	2f\^<	-ve	.	.	.	.	8A\L 8f\	.	8r	.	8r	.	2f/	2f\	.	8r	.	2ff\	.	2fff\^<	.
*	*	*	*	*	*	*	*	*	*	*	*	*	*tremolo	*	*	*	*	*tremolo	*	*	*	*	*
.	.	.	.	.	.	.	.	.	8A\ 8f\	.	8f/L 8a/	.	8a\L 8ff\	.	.	.	.	8f/L	.	.	.	.	.
4FF/	.	.	.	.	.	.	.	.	8A\ 8f\	.	8f/ 8a/	.	8a\ 8ff\	.	.	.	.	8f/	.	.	.	.	.
.	.	.	.	.	.	.	.	.	8A\J 8f\	.	8f/J 8a/	.	8a\J 8ff\	.	.	.	.	8f/J	.	.	.	.	.
=14	=14	=14	=14	=14	=14	=14	=14	=14	=14	=14	=14	=14	=14	=14	=14	=14	=14	=14	=14	=14	=14	=14	=14
4GG/	.	.	8.B-\L	Re-	.	1r	.	.	8B-/ 8d/	.	8B-/ 8d/	.	8B-/ 8d/	.	1g/	1gyy\	.	8g\	.	8b-\	.	8.bb-\L	.
.	.	.	.	.	.	.	.	.	8r	.	8r	.	8r	.	.	.	.	8r	.	8r	.	.	.
.	.	.	16G/Jk	.	.	.	.	.	.	.	.	.	.	.	.	.	.	.	.	.	.	16gg\Jk	.
4G\	.	.	8.d\L	.	.	.	.	.	8B-/ 8d/	.	8B-/ 8d/	.	8g/ 8b-/	.	.	.	.	8b-\	.	8dd\	>	8.ddd\L	.
.	.	.	.	.	.	.	.	.	8r	.	8r	.	8r	.	.	.	.	8r	.	8r	.	.	.
.	.	.	16B-\Jk	.	.	.	.	.	.	.	.	.	.	.	.	.	.	.	.	.	.	16bb-\Jk	.
4GG/	.	.	(>4.g\^<	-gi-	.	.	.	.	8B-/L 8d/	.	8r	.	8r	.	.	.	.	8r	.	4.gg\	.	(>4.ggg\^<	.
.	.	.	.	.	.	.	.	.	8B-/ 8d/	.	8B-/L 8d/	.	(>8b-\L 8gg\	.	.	.	.	8gL\	.	.	.	.	.
4G\	.	.	.	.	.	.	.	.	8B-/ 8d/	.	8B-/ 8d/	.	8gg\	.	.	.	.	8g/	.	.	]	.	.
.	.	.	8f\)	-na	.	.	.	.	8B-/J 8d/	.	8B-/J 8d/	.	8ff\J)	.	.	.	.	8g/J	.	8ff\	.	8fff\)	.
=15	=15	=15	=15	=15	=15	=15	=15	=15	=15	=15	=15	=15	=15	=15	=15	=15	=15	=15	=15	=15	=15	=15	=15
4C\	.	.	8.e\L	et	.	1r	.	.	2c\ 2e\	.	2c/ 2e/	.	8.ee\L	.	1cc/	1c\	.	2b-\	.	2cc\	.	(>8.eee\L	.
.	.	.	16d\Jk	spes	.	.	.	.	.	.	.	.	16dd\Jk	.	.	.	.	.	.	.	.	16ddd\Jk)	.
4B-\	6	.	8.c\L	no-	.	.	.	.	.	.	.	.	8.cc\L	.	.	.	.	.	.	.	.	(>8.ccc\L	.
.	.	.	16B-\Jk	.	.	.	.	.	.	.	.	.	16b-\Jk	.	.	.	.	.	.	.	.	16bb-\Jk)	.
4c\	6 4	.	8.AL\	-stra	.	.	.	.	2C/ 2B-/	.	2g/ 2b-/	.	8.a/L	.	.	.	.	2e/	.	2b-\	.	(>8.aa\L	.
.	.	.	16G/Jk	.	.	.	.	.	.	.	.	.	16g/Jk	.	.	.	.	.	.	.	.	16gg\Jk)	.
4C/	5 3	.	8.DL\	Sal-	.	.	.	.	.	.	.	.	8.d/L	.	.	.	.	.	.	.	.	(>8.dd\L	.
.	.	.	16E/Jk	.	.	.	.	.	.	.	.	.	16e/Jk	.	.	.	.	.	.	.	.	16ee\Jk)	.
=16	=16	=16	=16	=16	=16	=16	=16	=16	=16	=16	=16	=16	=16	=16	=16	=16	=16	=16	=16	=16	=16	=16	=16
4F\	.	.	2F\	-ve	.	1r	.	.	8r	.	8r	.	4a\ 4ff\	.	2f/	2c\	.	2a\	.	2ff\	.	2ff\	f
.	.	.	.	.	.	.	.	.	8F/L 8A/	.	8f/L 8a/	.	.	.	.	.	.	.	.	.	.	.	.
4FF/	.	.	.	.	.	.	.	.	8F/ 8A/	.	8f/ 8a/	.	8ccL/	.	.	.	.	.	.	.	.	.	.
.	.	.	.	.	.	.	.	.	8F/J 8A/	.	8f/J 8a/	.	8cc\J	.	.	.	.	.	.	.	.	.	.
4F\	.	.	2r	.	.	.	.	.	4F/ 4A/	.	4f/ 4a/	.	4a\ 4ff\	.	2r	2ryy	.	2r	.	2r	.	8r	.
.	.	.	.	.	.	.	.	.	.	.	.	.	.	.	.	.	.	.	.	.	.	8qddd/	.
.	.	.	.	.	.	.	.	.	.	.	.	.	.	.	.	.	.	.	.	.	.	8ccc\L	.
4r	.	.	.	.	.	.	.	.	4r	.	4r	.	8bn\L	p	.	.	.	.	.	.	.	8bbn\	p
.	.	.	.	.	.	.	.	.	.	.	.	.	8cc\J	.	.	.	.	.	.	.	.	8ccc\J	.
=17	=17	=17	=17	=17	=17	=17	=17	=17	=17	=17	=17	=17	=17	=17	=17	=17	=17	=17	=17	=17	=17	=17	=17
!	!	!	!LO:PB:g=original	!	!	!	!	!	!LO:PB:g=original	!	!	!	!LO:PB:g=original	!	!	!	!	!	!	!LO:PB:g=original	!	!LO:PB:g=original	!
4C/	.	.	1r	.	.	1r	.	.	8r	p	8r	p:	8cc#X\L	.	4r	4ryy	.	4r	.	4r	.	8ccc#X\L	.
.	.	.	.	.	.	.	.	.	8c\ 8e\	.	8g\ 8b-\	.	8dd\J	.	.	.	.	.	.	.	.	8ddd\J	.
!	!	!	!	!	!	!	!	!	!	!	!	!	!LO:SIC:v=4 zamiast 4.	!	!	!	!	!	!	!	!	!	!
!	!	!	!	!	!	!	!	!	!	!	!	!	!LO:N:vis=4	!	!	!	!	!	!	!	!	!	!
4r	.	.	.	.	.	.	.	.	8r	.	8r	.	(>4.e/	.	4b-/	4g\	.	4g/	.	4b-\	.	(>4.ee\	.
.	.	.	.	.	.	.	.	.	8c\ 8e\	.	8g\ 8b-\	.	.	.	.	.	.	.	.	.	.	.	.
4c\	.	.	.	.	.	.	.	.	8r	.	8r	.	.	.	4b-/	4g\	.	4g/	.	4b-\	.	.	.
.	.	.	.	.	.	.	.	.	8c\L 8e\	.	8g\L 8b-\	.	8dd\L)	.	.	.	.	.	.	.	.	8ddd\L)	.
!	!	!	!	!	!	!	!	!	!	!	!	!	!	!	!	!	!	!	!	!	!	!LO:SIC:v=cis zamiast c	!
4r	.	.	.	.	.	.	.	.	8c\ 8e\	.	8g\ 8b-\	.	8cc#\	.	4b-/	4g\	.	4g/	.	4b-\	.	8ccc#\	.
!	!	!	!	!	!	!	!	!	!	!	!	!	!	!	!	!	!	!	!	!	!	!LO:SIC:v=b zamiast h	!
.	.	.	.	.	.	.	.	.	8c\J 8e\	.	8g/J 8b-/	.	8b-\J	.	.	.	.	.	.	.	.	8bb-\J	.
=18	=18	=18	=18	=18	=18	=18	=18	=18	=18	=18	=18	=18	=18	=18	=18	=18	=18	=18	=18	=18	=18	=18	=18
!	!	!	!	!	!	!	!	!	!	!	!LO:PB:g=original	!	!	!	!LO:PB:g=original	!	!	!	!	!	!	!	!
4F\	.	.	1r	.	.	1r	.	.	8r	.	8r	.	8bn\L	.	4r	4ryy	.	4r	.	4r	.	8bbn\L	.
.	.	.	.	.	.	.	.	.	8A\ 8f\	.	8f\ 8a\	.	8cc\J	.	.	.	.	.	.	.	.	8ccc\J	.
4r	.	.	.	.	.	.	.	.	8r	.	8r	.	(>4.f\	.	4cc/	4a\	.	4a/	.	4cc\	.	(>4.ff\	.
.	.	.	.	.	.	.	.	.	8A\ 8f\	.	8f\ 8a\	.	.	.	.	.	.	.	.	.	.	.	.
4FF/	.	.	.	.	.	.	.	.	8r	.	8r	.	.	.	4cc/	4a\	.	4a/	.	4cc\	.	.	.
.	.	.	.	.	.	.	.	.	8A\L 8f\	.	8f\L 8a\	.	8a/L	.	.	.	.	.	.	.	.	8aa\L	.
4r	.	.	.	.	.	.	.	.	8A\ 8f\	.	8f/ 8a/	.	8cc\	.	4cc/	4a\	.	4a/	.	4cc\	.	8ccc\	.
.	.	.	.	.	.	.	.	.	8A\J 8f\	.	8f/J 8a/	.	8ff\J)	.	.	.	.	.	.	.	.	8fff\J)	.
=19	=19	=19	=19	=19	=19	=19	=19	=19	=19	=19	=19	=19	=19	=19	=19	=19	=19	=19	=19	=19	=19	=19	=19
!LO:PB:g=original	!	!	!	!	!	!	!	!	!	!	!	!	!	!	!	!	!	!LO:PB:g=original	!	!	!	!	!
4C\	.	.	1r	.	.	1r	.	.	8c\ 8e\	.	8g\ 8b-\	.	16ee\LL	.	8cc/	8e\	.	8cc\	.	8ee\	.	8eee\	.
.	.	.	.	.	.	.	.	.	.	.	.	.	16ff\	.	.	.	.	.	.	.	.	.	.
.	.	.	.	.	.	.	.	.	8r	.	8r	.	16ee\	.	8r	8ryy	.	8r	.	8r	.	8r	.
.	.	.	.	.	.	.	.	.	.	.	.	.	16dd\JJ	.	.	.	.	.	.	.	.	.	.
4c\	.	.	.	.	.	.	.	.	8c\ 8e\	.	8c/ 8e/	.	16cc\LL	.	8b-/	8c\	.	8b-\	.	8cc\	.	8ccc\	.
.	.	.	.	.	.	.	.	.	.	.	.	.	16dd\	.	.	.	.	.	.	.	.	.	.
.	.	.	.	.	.	.	.	.	8r	.	8r	.	16cc\	.	8r	8ryy	.	8r	.	8r	.	8r	.
.	.	.	.	.	.	.	.	.	.	.	.	.	(>16b-\JJ	.	.	.	.	.	.	.	.	.	.
4C\	.	.	.	.	.	.	.	.	8r	.	8r	.	8cc\L	.	2cc/	2e\	.	8r	.	8r	.	8r	.
.	.	.	.	.	.	.	.	.	8c\L 8e\	.	8g\L 8b-\	.	8bb-X\)	.	.	.	.	8c/L	.	8b-L\	.	8bb-X\	.
4c\	.	.	.	.	.	.	.	.	8c\ 8e\	.	8g/ 8b-/	.	8aa\	.	.	.	.	8c/	.	8a/	.	8aa\	.
.	.	.	.	.	.	.	.	.	8c\J 8e\	.	8g/J 8b-/	.	8gg\J	.	.	.	.	8c/J	.	8g/J	.	8gg\	.
=20	=20	=20	=20	=20	=20	=20	=20	=20	=20	=20	=20	=20	=20	=20	=20	=20	=20	=20	=20	=20	=20	=20	=20
4F\	.	.	1r	.	.	1r	.	.	8A\ 8f\	.	8f\ 8a\	.	16ff\LL	.	8f/	8f\	.	8f\	.	8ff\	.	8ff\	.
.	.	.	.	.	.	.	.	.	.	.	.	.	16gg\	.	.	.	.	.	.	.	.	.	.
.	.	.	.	.	.	.	.	.	8r	.	8r	.	16ff\	.	8r	8ryy	.	8r	.	8r	.	8r	.
.	.	.	.	.	.	.	.	.	.	.	.	.	16ee\JJ	.	.	.	.	.	.	.	.	.	.
4FF/	.	.	.	.	.	.	.	.	8A\ 8f\	.	8f\ 8a\	.	16aa\LL	.	8a/	8f\	.	8a\	.	8aa\	.	8aa\	.
.	.	.	.	.	.	.	.	.	.	.	.	.	16bb-\	.	.	.	.	.	.	.	.	.	.
.	.	.	.	.	.	.	.	.	8r	.	8r	.	16aa\	.	8r	8ryy	.	8r	.	8r	.	8r	.
.	.	.	.	.	.	.	.	.	.	.	.	.	(>16gg\JJ	.	.	.	.	.	.	.	.	.	.
2F\	.	.	.	.	.	.	.	.	8r	.	8r	.	8ff\L	.	2f/	2f\	.	8r	.	8r	.	8r	.
.	.	.	.	.	.	.	.	.	8e-X\L 8a\	.	8e-X\L 8a\	.	8eee-X\)	.	.	.	.	8fL\	.	8ee-X\L	.	8eee-X\L	.
.	.	.	.	.	.	.	.	.	8e-\ 8a\	.	8e-/ 8a/	.	8ddd\	.	.	.	.	8f/	.	8dd\	.	8ddd\	.
.	.	.	.	.	.	.	.	.	8e-\J 8a\	.	8e-/J 8a/	.	8ccc\J	.	.	.	.	8f/J	.	8cc\J	.	8ccc\J	.
=21	=21	=21	=21	=21	=21	=21	=21	=21	=21	=21	=21	=21	=21	=21	=21	=21	=21	=21	=21	=21	=21	=21	=21
!	!	!	!	!	!	!	!	!	!	!	!	!	!LO:PB:g=original	!	!	!	!	!	!	!	!	!LO:PB:g=original	!
4B-\	.	.	1r	.	.	1r	.	.	8g\	.	8g\ 8b-\	.	16ddd\LL	.	8b-/	8g\	.	8g\	.	8dd\	.	8ddd\	.
!	!	!	!	!	!	!	!	!	!	!	!	!	!LO:SIC:v=e zamiast es	!	!	!	!	!	!	!	!	!	!
.	.	.	.	.	.	.	.	.	.	.	.	.	16eee\	.	.	.	.	.	.	.	.	.	.
.	.	.	.	.	.	.	.	.	8r	.	8r	.	16ddd\	.	8r	8ryy	.	8r	.	8r	.	8r	.
.	.	.	.	.	.	.	.	.	.	.	.	.	16ccc\JJ	.	.	.	.	.	.	.	.	.	.
4G\	.	.	.	.	.	.	.	.	8g\	.	8g\ 8b-\	.	16bb-\LL	.	8b-/	8g\	.	8g\	.	8b-\	.	8bb-\	.
.	.	.	.	.	.	.	.	.	.	.	.	.	16ccc\	.	.	.	.	.	.	.	.	.	.
.	.	.	.	.	.	.	.	.	8r	.	8r	.	16aa\	.	8r	8ryy	.	8r	.	8r	.	8r	.
.	.	.	.	.	.	.	.	.	.	.	.	.	16bb-\JJ	.	.	.	.	.	.	.	.	.	.
!	!	!	!	!	!	!	!	!	!	!	!	!	!	!	!LO:SIC:v=brak pauzy	!	!	!	!	!	!	!	!
4C#X\	#	.	.	.	.	.	.	.	8r	.	8r	.	8bb-\	.	8ryy	8ryy	.	8b-\	.	8b-\	.	8bb-\	.
*	*	*	*	*	*	*	*	*	*	*	*	*	*	*	*tremolo	*	*	*	*	*	*	*	*
.	.	.	.	.	.	.	.	.	8c#X\L 8e\	.	8c#X/L 8e/	.	4cc#X\^<	.	8a/L	8e\L	.	4g^<\	.	4cc#X\	.	4cc#X\^<	.
4A\	.	.	.	.	.	.	.	.	8c#\ 8e\	.	8c#/ 8e/	.	.	.	8a/	8e\	.	.	.	.	.	.	.
.	.	.	.	.	.	.	.	.	8c#\J 8e\	.	8c#/J 8e/	.	8gg\	.	8a/J	8e\J	.	8g\	.	8cc#\	.	8gg\	.
=22	=22	=22	=22	=22	=22	=22	=22	=22	=22	=22	=22	=22	=22	=22	=22	=22	=22	=22	=22	=22	=22	=22	=22
!	!	!	!	!	!	!	!	!	!LO:PB:g=original	!	!	!	!	!	!	!	!	!	!	!LO:PB:g=original	!	!	!
4AA/	#	.	1r	.	.	1r	.	.	8r	.	8r	.	8ccc#X\	.	8r	8ryy	.	8a\	.	8cc#X\	.	8ccc#X\	.
.	.	.	.	.	.	.	.	.	8c#X\L 8e\	.	8c#X/L 8e/	.	4ee\^<	.	8a/L	8e\L	.	4a^<\	.	4ee\^<	.	4ee\^<	.
4A\	.	.	.	.	.	.	.	.	8c#\ 8e\	.	8c#/ 8e/	.	.	.	8a/	8e\	.	.	.	.	.	.	.
.	.	.	.	.	.	.	.	.	8c#\J 8e\	.	8c#/J 8e/	.	8ccc#\	.	8a/J	8e\J	.	8a\	.	8cc#\	.	8ccc#\	.
4BBn/	8 6# 5	.	.	.	.	.	.	.	8r	.	8r	.	8bbn\	.	8r	8ryy	.	8g#X^<\	.	8bn\	.	8bbn\	.
!	!	!	!	!	!	!	!	!	!	!	!	!	!LO:SIC:v=b zamiast h	!	!	!	!	!	!	!	!	!	!
.	.	.	.	.	.	.	.	.	8BnL\	.	8g#X\L 8bn\	.	4b-\^<	.	8bn/L	8g#X\L	.	4g#\	.	4b\^<	.	4bb\^<	.
!LO:SIC:v= b zamiast h	!	!	!	!	!	!	!	!	!	!	!	!	!	!	!	!	!	!	!	!	!	!	!
4B-\	.	.	.	.	.	.	.	.	8B/	.	8g#/ 8b/	.	.	.	8b/	8g#\	.	.	.	.	.	.	.
!	!	!	!	!	!	!	!	!	!	!	!	!	!	!	!	!	!	!LO:SIC:v=f zamiast e	!	!	!	!	!
.	.	.	.	.	.	.	.	.	8B/J	.	8g#/J 8b/	.	8gg#X\	.	8b/J	8g#\J	.	8f\	.	8g#X\	.	8gg#X\	.
=23	=23	=23	=23	=23	=23	=23	=23	=23	=23	=23	=23	=23	=23	=23	=23	=23	=23	=23	=23	=23	=23	=23	=23
!	!	!	!	!	!	!	!	!	!	!	!LO:PB:g=original	!	!	!	!LO:PB:g=original	!	!	!LO:PB:g=original	!	!	!	!	!
2.F\	8	.	1r	.	.	1r	.	.	8r	.	8r	.	8aa\L	.	2.f/	2.f\	.	8a/L	.	8aL\	.	1r	.
*	*	*	*	*	*	*	*	*	*Xtremolo	*	*	*	*	*	*	*	*	*	*	*	*	*	*
!	!	!	!	!	!	!	!	!	!LO:N:vis=8	!	!	!	!	!	!	!	!	!	!	!	!	!	!
.	.	.	.	.	.	.	.	.	8F/L 8A/	.	8f\L 8a\	.	8ff\J	.	.	.	.	8f/J	.	8f/J	.	.	.
.	.	.	.	.	.	.	.	.	.	.	.	f	.	.	.	.	.	.	.	.	.	.	.
!	!	!	!	!	!	!	!	!	!LO:N:vis=4.	!	!	!	!	!	!	!	!	!	!	!	!	!	!
.	.	.	.	.	.	.	.	.	2.F/ 2.A/	.	8f/ 8a/	.	2fff\	f	.	.	.	2f/	.	2ff\^<	.	.	.
.	.	.	.	.	.	.	.	.	.	.	8f/J 8a/	.	.	.	.	.	.	.	.	.	.	.	.
.	.	.	.	.	.	.	.	.	.	.	8f\L 8a\	.	.	.	.	.	.	.	.	.	.	.	.
.	.	.	.	.	.	.	.	.	.	.	8f/ 8a/	.	.	.	.	.	.	.	.	.	.	.	.
!	!	!	!	!	!	!	!	!	!	!	!	!	!LO:N:vis=16	!	!	!	!	!	!	!	!	!	!
4r	.	.	.	.	.	.	.	.	.	.	8f/ 8a/	.	8eee\L	.	4r	4ryy	.	4r	.	8ee\L	.	.	.
!	!	!	!	!	!	!	!	!	!	!	!	!	!LO:N:vis=16	!	!	!	!	!	!	!	!	!	!
.	.	.	.	.	.	.	.	.	.	.	8f/J 8a/	.	8ddd\J	.	.	.	.	.	.	8dd\J	.	.	.
=24	=24	=24	=24	=24	=24	=24	=24	=24	=24	=24	=24	=24	=24	=24	=24	=24	=24	=24	=24	=24	=24	=24	=24
*	*	*	*	*	*	*	*	*	*tremolo	*	*	*	*	*	*	*	*	*	*	*	*	*	*
2c\	.	.	1r	.	.	1r	.	.	8C/L 8G/	.	8c/L 8e/	.	(>16ccc\LL	.	8b-/	8c\	.	(>16cc\LL	.	(>16ccc\LL	.	16ccc\LL	.
.	.	.	.	.	.	.	.	.	.	.	.	.	16ddd\	.	.	.	.	16dd\	.	16ddd\	.	16ddd\	.
.	.	.	.	.	.	.	.	.	8C/ 8G/	.	8c/ 8e/	.	16ccc\	.	8r	8ryy	.	16cc\	.	16ccc\	.	16ccc\	.
.	.	.	.	.	.	.	.	.	.	.	.	.	16bb-X\JJ)	.	.	.	.	16b-\JJ)	.	16bb-\JJ)	.	16bb-\JJ	.
.	.	.	.	.	.	.	.	.	8C/ 8G/	.	8c/ 8e/	.	(>16aa\LL	.	8b-/	8c\	.	(>16aLL\	.	(>16aa\LL	.	16aa\LL	.
.	.	.	.	.	.	.	.	.	.	.	.	.	16bb-\	.	.	.	.	16b-\	.	16bb-\	.	16bb-\	.
.	.	.	.	.	.	.	.	.	8C/J 8G/	.	8c/J 8e/	.	16aa\	.	8r	8ryy	.	16a/	.	16aa\	.	16aa\	.
.	.	.	.	.	.	.	.	.	.	.	.	.	16gg\JJ)	.	.	.	.	16g/JJ)	.	16gg\JJ)	.	16gg\JJ	.
!	!	!	!	!	!	!	!	!	!LO:N:vis=4	!	!	!	!	!	!LO:SIC:v=3 ćwierćnuta z kropką	!	!	!	!	!	!	!	!
!	!	!	!	!	!	!	!	!	!	!	!	!	!	!	!LO:N:vis=4.	!LO:N:vis=4.	!	!	!	!	!	!	!
4C/	.	.	.	.	.	.	.	.	8C/ 8G/	.	8c/L 8e/	.	8ee\L	.	2b-/	2c\	.	8e/L	.	8ee\L	.	8r	.
.	.	.	.	.	.	.	.	.	8C/L	.	8c/	.	8cc\'	.	.	.	.	8c/'J	.	8cc\'	.	8cc\L	.
4c\	.	.	.	.	.	.	.	.	8D/	.	8d/	.	8dd\'	.	.	.	.	8d/'L	.	8dd\'	.	8dd\	.
.	.	.	.	.	.	.	.	.	8E/J	.	8e/J	.	8ee\'J	.	.	.	.	8e/'J	.	8ee\'J	.	8ee\J	.
=25	=25	=25	=25	=25	=25	=25	=25	=25	=25	=25	=25	=25	=25	=25	=25	=25	=25	=25	=25	=25	=25	=25	=25
!LO:PB:g=original	!	!	!	!	!	!	!	!	!	!	!	!	!LO:PB:g=original	!	!	!	!	!	!	!	!	!LO:PB:g=original	!
.	.	.	.	.	.	.	.	.	.	.	.	.	8qgg/	.	.	.	.	.	.	.	.	.	.
2F\	.	.	1r	.	.	1r	.	.	8A\L 8f\	.	8f/L 8a/	.	16ff\LL	.	8a/L	8c\L	.	1r	.	1r	.	1r	.
.	.	.	.	.	.	.	.	.	.	.	.	.	16ee\	.	.	.	.	.	.	.	.	.	.
.	.	.	.	.	.	.	.	.	8A\ 8f\	.	8f/ 8a/	.	16ff\	.	8a/	8c\	.	.	.	.	.	.	.
.	.	.	.	.	.	.	.	.	.	.	.	.	16gg\JJ	.	.	.	.	.	.	.	.	.	.
.	.	.	.	.	.	.	.	.	8A\ 8f\	.	8f/ 8a/	.	16aa\LL	.	8a/	8c\	.	.	.	.	.	.	.
.	.	.	.	.	.	.	.	.	.	.	.	.	16gg\	.	.	.	.	.	.	.	.	.	.
.	.	.	.	.	.	.	.	.	8A\J 8f\	.	8f/J 8a/	.	16aa\	.	8a/J	8c\J	.	.	.	.	.	.	.
.	.	.	.	.	.	.	.	.	.	.	.	.	16bb-\JJ	.	.	.	.	.	.	.	.	.	.
4C/	.	.	.	.	.	.	.	.	8c\L 8e\	.	8r	.	16r	.	8b-/L	8c\L	.	.	.	.	.	.	.
*	*	*	*	*	*	*	*	*	*	*	*	*	*Xtremolo	*	*	*	*	*	*	*	*	*	*
.	.	.	.	.	.	.	.	.	.	.	.	.	16ccc\LL	.	.	.	.	.	.	.	.	.	.
.	.	.	.	.	.	.	.	.	8c\ 8e\	.	8c/L 8e/	.	16bbn\	.	8b-/	8c\	.	.	.	.	.	.	.
.	.	.	.	.	.	.	.	.	.	.	.	.	16ccc\JJ	.	.	.	.	.	.	.	.	.	.
4c\	.	.	.	.	.	.	.	.	8c\ 8e\	.	8c/ 8e/	.	(>16ccc\LL	.	8b-/	8c\	.	.	.	.	.	.	.
.	.	.	.	.	.	.	.	.	.	.	.	.	16ccc#X\	.	.	.	.	.	.	.	.	.	.
.	.	.	.	.	.	.	.	.	8c\J 8e\	.	8c/J 8e/	.	16ddd\	.	8b-/J	8c\J	.	.	.	.	.	.	.
.	.	.	.	.	.	.	.	.	.	.	.	.	16eee\JJ)	.	.	.	.	.	.	.	.	.	.
=26	=26	=26	=26	=26	=26	=26	=26	=26	=26	=26	=26	=26	=26	=26	=26	=26	=26	=26	=26	=26	=26	=26	=26
4F\	.	.	1r	.	.	1r	.	.	4F/ 4A/	.	4A/ 4f/	.	4fff\	.	4a/	8c\L	.	4a\	.	4ff\	.	4ff\	.
.	.	.	.	.	.	.	.	.	.	.	.	.	.	.	.	8c\J	.	.	.	.	.	.	.
4F\	.	.	.	.	.	.	.	.	4F/ 4A/	.	4f\ 4a\	.	8ccL/	.	4a/	8c\L	.	4cc\	.	4aa\	.	4aa\	.
.	.	.	.	.	.	.	.	.	.	.	.	.	8cc\J	.	.	8c\J	.	.	.	.	.	.	.
4F\	.	.	.	.	.	.	.	.	4F/ 4A/	.	4A/ 4f/	.	4a\ 4ff\	.	4a/	8c\L	.	4a\	.	4ff\	.	4ff\	.
.	.	.	.	.	.	.	.	.	.	.	.	.	.	.	.	8c\J	.	.	.	.	.	.	.
4r	.	.	.	.	.	.	.	.	4r	.	4r	.	4r	.	4r	4r	.	4r	.	4r	.	4r	.
=27	=27	=27	=27	=27	=27	=27	=27	=27	=27	=27	=27	=27	=27	=27	=27	=27	=27	=27	=27	=27	=27	=27	=27
!	!	!	!	!	!	!	!	!	!	!	!	!	!	!	!	!	!	!	!	!	!	!	!LO:PB:g=original
!	!	!	!	!	!	!	!	!	!	!	!	!	!	!	!	!	!	!	!	!	!	!LO:TX:a:i:t=Solo	!
*	*	*	*	*	*	*	*	*	*^	*	*^	*	*^	*	*	*	*	*	*	*	*	*	*
2G\	n	.	1r	.	.	1r	.	.	2d\	2Bn\	.	2d/	2Bn/	f	2d/	2Bn\	f	2g/	2G\	.	2r	.	2r	.	8g/'L	.
!	!	!	!	!	!	!	!	!	!	!	!	!	!	!	!	!	!	!	!	!	!	!	!	!	!LO:SIC:v=b zamiast h	!
.	.	.	.	.	.	.	.	.	.	.	.	.	.	.	.	.	.	.	.	.	.	.	.	.	(>16b-\L	.
.	.	.	.	.	.	.	.	.	.	.	.	.	.	.	.	.	.	.	.	.	.	.	.	.	16dd\JJ)	f
.	.	.	.	.	.	.	.	.	.	.	.	.	.	.	.	.	.	.	.	.	.	.	.	.	8gg\'L	.
.	.	.	.	.	.	.	.	.	.	.	.	.	.	.	.	.	.	.	.	.	.	.	.	.	(>16bbn\L	.
.	.	.	.	.	.	.	.	.	.	.	.	.	.	.	.	.	.	.	.	.	.	.	.	.	16ddd\JJ)	.
4GG/	.	.	.	.	.	.	.	.	8r	8r	.	8r	8r	.	8r	8r	.	8r	8ryy	.	8r	p	8r	p	2ggg\^<	.
!	!	!	!	!	!	!	!	!	!LO:TX:a:t=pizz.	!LO:N:vis=2	!	!LO:TX:a:t=pizzi.	!LO:N:vis=2	!	!LO:TX:a:t=pizz.	!LO:N:vis=2	!	!	!	!	!	!	!	!	!	!
*	*	*	*	*	*	*	*	*	*	*	*	*	*	*	*	*	*	*	*	*	*Xtremolo	*	*	*	*	*
.	.	.	.	.	.	.	.	.	8f/L	4.G\	.	8f/L	4.G\	.	8f/L	4.G\	.	8f/L	8f\Lyy	p	8g/L	.	8ff\'L	.	.	.
4r	.	.	.	.	.	.	.	.	8e/	.	.	8e/	.	.	8e/	.	.	8e/	8eyy\	.	8g/	.	8ee\'	.	.	.
.	.	.	.	.	.	.	.	.	8d/J	.	.	8d/J	.	.	8d/J	.	.	8d/J	8d\Jyy	.	8g/J	.	8dd\'J	.	.	.
=28	=28	=28	=28	=28	=28	=28	=28	=28	=28	=28	=28	=28	=28	=28	=28	=28	=28	=28	=28	=28	=28	=28	=28	=28	=28	=28
!	!	!	!	!	!	!	!	!	!LO:PB:g=original	!	!	!	!	!	!	!	!	!LO:PB:g=original	!	!	!LO:PB:g=original	!	!	!	!	!
!	!	!	!	!	!	!	!	!	!LO:TX:a:t=arco	!	!	!LO:TX:a:t=arco	!	!	!LO:TX:a:t=arco	!	!	!	!	!	!	!	!	!	!	!
2c\	.	.	1r	.	.	1r	.	.	2e/	2c\	.	2e/	2c/	.	2e/	2c\	.	2cc/	2c\	.	2r	.	2r	.	8g/'L	f
.	.	.	.	.	.	.	.	.	.	.	.	.	.	.	.	.	.	.	.	.	.	.	.	.	(>16cc\L	.
.	.	.	.	.	.	.	.	.	.	.	.	.	.	.	.	.	.	.	.	.	.	.	.	.	16ee\JJ)	.
.	.	.	.	.	.	.	.	.	.	.	.	.	.	.	.	.	.	.	.	.	.	.	.	.	8gg\'L	.
.	.	.	.	.	.	.	.	.	.	.	.	.	.	.	.	.	.	.	.	.	.	.	.	.	(>16ccc\L	.
.	.	.	.	.	.	.	.	.	.	.	.	.	.	.	.	.	.	.	.	.	.	.	.	.	16eee\JJ)	.
4C/	.	.	.	.	.	.	.	.	8r	8r	.	8r	8r	.	8r	8r	.	8r	8ryy	.	8r	.	8r	.	2ggg\^<	.
!	!	!	!	!	!	!	!	!	!LO:TX:a:t=pizz.	!LO:N:vis=2	!	!LO:TX:a:t=pizzi.	!LO:N:vis=2	!	!LO:TX:a:t=pizz.	!	!	!	!	!	!	!	!	!	!	!
*	*	*	*	*	*	*	*	*	*	*	*	*	*	*	*	*	*	*	*	*	*tremolo	*	*	*	*	*
.	.	.	.	.	.	.	.	.	8e/L	4.G\	.	8e/L	4.G\	.	8e/L	4.G\	.	8e/L	8e\Lyy	p	8g/L	.	8ee\'L	.	.	.
4r	.	.	.	.	.	.	.	.	8d/	.	.	8d/	.	.	8d/	.	.	8d/	8dyy\	.	8g/	.	8dd\'	.	.	.
.	.	.	.	.	.	.	.	.	8c/J	.	.	8c/J	.	.	8c/J	.	.	8c/J	8c\Jyy	.	8g/J	.	8cc\'J	.	.	.
*	*	*	*	*	*	*	*	*	*v	*v	*	*	*	*	*v	*v	*	*	*	*	*	*	*	*	*	*
*	*	*	*	*	*	*	*	*	*	*	*v	*v	*	*	*	*	*	*	*	*	*	*	*	*
=29	=29	=29	=29	=29	=29	=29	=29	=29	=29	=29	=29	=29	=29	=29	=29	=29	=29	=29	=29	=29	=29	=29	=29
!	!	!	!	!	!	!	!	!	!	!	!LO:PB:g=original	!LO:PB:g=original	!	!	!LO:PB:g=original	!	!	!	!	!	!	!	!
!	!	!	!	!	!	!	!	!	!LO:TX:a:t=arco	!	!LO:TX:a:t=arco	!	!LO:TX:a:t=arco	!	!	!	!	!	!	!	!	!	!
2G\	n	.	1r	.	.	1r	.	.	2G/ 2f/	.	2G/ 2f/	.	2Bn/ 2d/	.	2g/	2G\	.	2bn\	f	2gg\	.	8ggg\L	.
.	.	.	.	.	.	.	.	.	.	.	.	.	.	.	.	.	.	.	.	.	.	(>16fff#X\L	.
.	.	.	.	.	.	.	.	.	.	.	.	.	.	.	.	.	.	.	.	.	.	16aaa\JJ)	.
.	.	.	.	.	.	.	.	.	.	.	.	.	.	.	.	.	.	.	.	.	.	(>16ggg\LL	.
.	.	.	.	.	.	.	.	.	.	.	.	.	.	.	.	.	.	.	.	.	.	16ccc#X\	.
.	.	.	.	.	.	.	.	.	.	.	.	.	.	.	.	.	.	.	.	.	.	16eee\	.
.	.	.	.	.	.	.	.	.	.	.	.	.	.	.	.	.	.	.	.	.	.	16ddd\JJ)	.
!	!	!	!	!	!	!	!	!	!	!	!	!	!	!	!	!	!	!	!	!	!	!LO:SIC:v=fis zamiast f	!
4r	.	.	.	.	.	.	.	.	4r	.	4r	.	4r	.	8r	8ryy	.	4r	.	4r	.	8fff#\'L	.
.	.	.	.	.	.	.	.	.	.	.	.	.	.	.	8g/L	8g\L	.	.	.	.	.	8ddd\'	.
8r	.	.	.	.	.	.	.	.	8r	.	8r	.	8r	.	8g/	8g\	.	8r	.	8r	.	8bbn\'	.
8GG/	.	.	.	.	.	.	.	.	8G/ 8f/	.	8G/ 8f/	.	8B/ 8d/	.	8g/J	8g\J	.	8b\	.	8gg\	.	8gg\'J	.
=30	=30	=30	=30	=30	=30	=30	=30	=30	=30	=30	=30	=30	=30	=30	=30	=30	=30	=30	=30	=30	=30	=30	=30
!	!	!	!	!	!	!	!	!	!	!	!	!	!	!	!	!	!	!	!	!	!	!LO:PB:g=original	!
2c\	.	.	1r	.	.	1r	.	.	2G/ 2e/	.	2G/ 2e/	.	2c/ 2e/	.	2cc/	2c\	.	2cc\	.	2gg\	.	8eee\L	.
.	.	.	.	.	.	.	.	.	.	.	.	.	.	.	.	.	.	.	.	.	.	(>16ddd#X\L	.
.	.	.	.	.	.	.	.	.	.	.	.	.	.	.	.	.	.	.	.	.	.	16fff\JJ)	.
.	.	.	.	.	.	.	.	.	.	.	.	.	.	.	.	.	.	.	.	.	.	(>16eee\LL	.
.	.	.	.	.	.	.	.	.	.	.	.	.	.	.	.	.	.	.	.	.	.	16ccc#X\	.
!	!	!	!	!	!	!	!	!	!	!	!	!	!	!	!	!	!	!	!	!	!	!LO:SIC:v=dis zamiast d	!
.	.	.	.	.	.	.	.	.	.	.	.	.	.	.	.	.	.	.	.	.	.	16ddd#\	.
.	.	.	.	.	.	.	.	.	.	.	.	.	.	.	.	.	.	.	.	.	.	16bbn\JJ)	.
!	!	!	!	!	!	!	!	!	!	!	!	!	!	!	!	!	!	!	!	!	!	!LO:SIC:v=cis zamiast c	!
4r	.	.	.	.	.	.	.	.	4r	.	4r	.	4r	.	8r	8ryy	.	4r	.	4r	.	8ccc#\'L	.
.	.	.	.	.	.	.	.	.	.	.	.	.	.	.	8cc/L	8c\L	.	.	.	.	.	8gg\'	.
8r	.	.	.	.	.	.	.	.	8r	.	8r	.	8r	.	8cc/	8c\	.	8r	.	8r	.	8ee\'	.
8C/	.	.	.	.	.	.	.	.	8G/ 8e/	.	8G/ 8e/	.	8c/ 8e/	.	8cc/J	8c\J	.	8cc\	.	8gg\	.	8cc\'J	.
=31	=31	=31	=31	=31	=31	=31	=31	=31	=31	=31	=31	=31	=31	=31	=31	=31	=31	=31	=31	=31	=31	=31	=31
!LO:PB:g=original	!	!	!	!	!	!	!	!	!	!	!	!	!	!	!	!	!	!	!	!	!	!	!
1D\	.	.	1r	.	.	1r	.	.	2.F/ 2.A/	.	2.f/ 2.a/	.	2.d/ 2.dd/	.	2.dd/	2.a\	.	2a/	.	2a\	.	8dd\L	.
.	.	.	.	.	.	.	.	.	.	.	.	.	.	.	.	.	.	.	.	.	.	16ff\L	.
.	.	.	.	.	.	.	.	.	.	.	.	.	.	.	.	.	.	.	.	.	.	16ee\JJ	.
.	.	.	.	.	.	.	.	.	.	.	.	.	.	.	.	.	.	.	.	.	.	16aa\LL	.
.	.	.	.	.	.	.	.	.	.	.	.	.	.	.	.	.	.	.	.	.	.	16gg#X\	.
.	.	.	.	.	.	.	.	.	.	.	.	.	.	.	.	.	.	.	.	.	.	16bbn\	.
.	.	.	.	.	.	.	.	.	.	.	.	.	.	.	.	.	.	.	.	.	.	16aa\JJ	.
.	.	.	.	.	.	.	.	.	.	.	.	.	.	.	.	.	.	4r	.	4r	.	16ddd\LL	.
.	.	.	.	.	.	.	.	.	.	.	.	.	.	.	.	.	.	.	.	.	.	16ccc#X\	.
.	.	.	.	.	.	.	.	.	.	.	.	.	.	.	.	.	.	.	.	.	.	16eee\	.
.	.	.	.	.	.	.	.	.	.	.	.	.	.	.	.	.	.	.	.	.	.	16ddd\JJ	.
.	.	.	.	.	.	.	.	.	8r	.	8r	.	8r	.	4r	4ryy	.	8r	.	8r	.	4fff\	.
.	.	.	.	.	.	.	.	.	8F/ 8A/	.	8f/ 8a/	.	8dd\	.	.	.	.	8a/	.	8ff\	.	.	.
=32	=32	=32	=32	=32	=32	=32	=32	=32	=32	=32	=32	=32	=32	=32	=32	=32	=32	=32	=32	=32	=32	=32	=32
.	.	.	.	.	.	.	.	.	.	.	.	.	.	.	.	.	.	.	.	.	.	8qgg/	.
*	*	*	*	*	*	*	*	*	*	*	*	*	*	*	*	*	*	*Xtremolo	*	*	*	*	*
4C\	.	.	1r	.	.	1r	.	.	8C/L 8G/	.	8G/L 8e/	.	8eL\ 8cc\	.	8cc/L	8c\L	.	8cc\L	.	8ee\L	.	(>4.eee\^<	.
.	.	.	.	.	.	.	.	.	8C/ 8G/	.	8G/ 8e/	.	8e/ 8cc/	.	8cc/	8c\	.	8cc\	.	8ee\	.	.	.
4c\	.	.	.	.	.	.	.	.	8C/J 8G/	.	8G/J 8e/	.	8e/J 8cc/	.	8cc/J	8c\J	.	8cc\J	.	8ee\J	.	.	.
.	.	.	.	.	.	.	.	.	8r	.	8r	.	8r	.	8r	8ryy	.	8r	.	8r	.	16ddd\LL	.
.	.	.	.	.	.	.	.	.	.	.	.	.	.	.	.	.	.	.	.	.	.	16ccc\JJ)	.
4C/	.	.	.	.	.	.	.	.	2C/ 2G/	.	2G/ 2e/	.	2e\ 2cc\	.	2cc/	2c\	.	2cc\	.	2ee\	.	16bbn\LL	.
.	.	.	.	.	.	.	.	.	.	.	.	.	.	.	.	.	.	.	.	.	.	16aa\	.
.	.	.	.	.	.	.	.	.	.	.	.	.	.	.	.	.	.	.	.	.	.	16gg\	.
.	.	.	.	.	.	.	.	.	.	.	.	.	.	.	.	.	.	.	.	.	.	16ff\JJ	.
4r	.	.	.	.	.	.	.	.	.	.	.	.	.	.	.	.	.	.	.	.	.	16bb\LL	.
.	.	.	.	.	.	.	.	.	.	.	.	.	.	.	.	.	.	.	.	.	.	16gg\	.
.	.	.	.	.	.	.	.	.	.	.	.	.	.	.	.	.	.	.	.	.	.	16ee\	.
.	.	.	.	.	.	.	.	.	.	.	.	.	.	.	.	.	.	.	.	.	.	16cc\JJ	.
=33	=33	=33	=33	=33	=33	=33	=33	=33	=33	=33	=33	=33	=33	=33	=33	=33	=33	=33	=33	=33	=33	=33	=33
!	!	!	!	!	!	!	!	!	!	!	!	!	!	!	!	!LO:PB:g=original	!	!	!	!LO:PB:g=original	!	!LO:PB:g=original	!
!	!	!	!	!	!	!	!	!	!	!	!	!	!	!	!	!	!	!	!	!	!	!LO:SIC:V=b zamiast h	!
4GG/	.	.	1r	.	.	1r	.	.	8Bn/ 8d/	.	8Bn/ 8d/	.	8Bn/ 8d/	.	8g/	8G\	.	8bn\	<	8dd\	<	16b-\LL	.
.	.	.	.	.	.	.	.	.	.	.	.	.	.	.	.	.	.	.	.	.	.	16dd\	.
.	.	.	.	.	.	.	.	.	8r	.	8r	.	8r	.	8r	8ryy	.	8r	.	8r	.	16ff\	.
.	.	.	.	.	.	.	.	.	.	.	.	.	.	.	.	.	.	.	.	.	.	16aa\JJ	.
4G\	.	.	.	.	.	.	.	.	8B/ 8d/	.	8B/ 8d/	.	8B/ 8d/	.	8g/	8G\	.	8b\	.	8dd\	.	16ff#X\LL	.
.	.	.	.	.	.	.	.	.	.	.	.	.	.	.	.	.	.	.	.	.	.	16gg\	.
.	.	.	.	.	.	.	.	.	8r	.	8r	.	8r	.	8r	8ryy	.	8r	.	8r	.	16bbn\	.
.	.	.	.	.	.	.	.	.	.	.	.	.	.	.	.	.	.	.	.	.	.	16ddd\JJ	.
!	!	!	!	!	!	!	!	!	!LO:PB:g=original	!	!	!	!	!	!	!	!	!	!	!	!	!	!
4GG/	.	.	.	.	.	.	.	.	8B/ 8d/	.	8G/ 8f/	.	8G/ 8f/	.	8g/	8G\	.	8b\	.	8dd\	.	16r	.
.	.	.	.	.	.	.	.	.	.	.	.	.	.	.	.	.	.	.	.	.	.	16bb\'LL	.
.	.	.	.	.	.	.	.	.	8r	.	8r	.	8r	.	8r	8ryy	.	8r	.	8r	.	16aa\'	.
.	.	.	.	.	.	.	.	.	.	.	.	.	.	.	.	.	.	.	.	.	.	16gg\'JJ	.
4G\	.	.	.	.	.	.	.	.	8B/ 8d/	.	4G/ 4f/	.	8d/ 8b-/	.	8g/	8G\	.	4b\	[[	8dd\	.	16gg\'LL	.
.	.	.	.	.	.	.	.	.	.	.	.	.	.	.	.	.	.	.	.	.	.	16bb\'	.
.	.	.	.	.	.	.	.	.	8r	.	.	.	8r	.	8r	8ryy	.	.	.	8r	[[	16ddd\'	.
.	.	.	.	.	.	.	.	.	.	.	.	.	.	.	.	.	.	.	.	.	.	16ggg\'JJ	.
=34	=34	=34	=34	=34	=34	=34	=34	=34	=34	=34	=34	=34	=34	=34	=34	=34	=34	=34	=34	=34	=34	=34	=34
!	!	!	!	!	!	!	!	!	!	!	!	!	!LO:PB:g=original	!	!	!	!	!LO:PB:g=original	!	!	!	!	!
4C/	.	.	1r	.	.	2r	.	.	2C/ 2G/	.	2c/ 2e/	.	2e/ 2cc/	.	4cc/	4c\	.	2e/	[	2cc\	[	(>16ccc\LL	.
!	!	!	!	!	!	!	!	!	!	!	!	!	!	!	!	!	!	!	!	!	!	!LO:SIC:v=b zamiast h	!
.	.	.	.	.	.	.	.	.	.	.	.	.	.	.	.	.	.	.	.	.	.	16bb-\	.
.	.	.	.	.	.	.	.	.	.	.	.	.	.	.	.	.	.	.	.	.	.	16ccc\	.
.	.	.	.	.	.	.	.	.	.	.	.	.	.	.	.	.	.	.	.	.	.	16ddd\JJ)	.
4c\	.	.	.	.	.	.	.	.	.	.	.	.	.	.	4cc/	4c\	.	.	.	.	.	(>16eee\LL	.
.	.	.	.	.	.	.	.	.	.	.	.	.	.	.	.	.	.	.	.	.	.	16ccc\)	.
.	.	.	.	.	.	.	.	.	.	.	.	.	.	.	.	.	.	.	.	.	.	16gg\'	.
.	.	.	.	.	.	.	.	.	.	.	.	.	.	.	.	.	.	.	.	.	.	16ee\'JJ	.
!	!	!	!	!	!	!	!	!LO:DY:b	!	!	!	!	!	!	!	!	!	!	!	!	!	!	!
4C/	.	.	.	.	.	4r	.	p	4C/ 4G/	.	4c/ 4e/	.	4e/ 4cc/	.	4cc/	4c\	.	4e/	.	4cc\	.	4cc\'	.
4r	.	.	.	.	.	8g\L	Sal-	.	4r	.	4r	.	4r	.	4r	4ryy	.	4r	.	4r	.	4r	.
.	.	.	.	.	.	8cc\J	-ve	.	.	.	.	.	.	.	.	.	.	.	.	.	.	.	.
=35	=35	=35	=35	=35	=35	=35	=35	=35	=35	=35	=35	=35	=35	=35	=35	=35	=35	=35	=35	=35	=35	=35	=35
!	!	!LO:DY:b	!	!	!	!	!	!	!	!	!LO:PB:g=original	!	!	!	!	!	!	!	!	!	!	!	!
4C/	.	p	1r	.	.	4ee\	Sal-	.	4r	p	4r	p	4e/ 4cc/	p	1r	1ryy	.	1r	.	1r	.	1r	.
4c\	.	.	.	.	.	4cc\	-ve	.	4c\ 4e\	.	4c/ 4e/	.	4e/ 4cc/	.	.	.	.	.	.	.	.	.	.
4C/	.	.	.	.	.	8r	.	.	4c\ 4e\	.	4c/ 4e/	.	8r	.	.	.	.	.	.	.	.	.	.
.	.	.	.	.	.	8cc\L	Sal-	.	.	.	.	.	8cc\L	.	.	.	.	.	.	.	.	.	.
4r	.	.	.	.	.	8bn\	-ve	.	4r	.	4r	.	8bn\	.	.	.	.	.	.	.	.	.	.
.	.	.	.	.	.	8a\J	Re-	.	.	.	.	.	8a/J	.	.	.	.	.	.	.	.	.	.
=36	=36	=36	=36	=36	=36	=36	=36	=36	=36	=36	=36	=36	=36	=36	=36	=36	=36	=36	=36	=36	=36	=36	=36
!	!	!	!	!	!	!LO:PB:g=original	!	!	!	!	!	!	!	!	!	!	!	!	!	!	!	!	!
4G\	n	.	1r	.	.	4a\	-gi-	.	4r	.	4r	.	4a/	.	1r	1ryy	.	1r	.	1r	.	1r	.
!	!	!	!	!	!	!	!	!	!	!	!LO:SIC:v=b zamiast h	!	!	!	!	!	!	!	!	!	!	!	!
4GG/	.	.	.	.	.	4g\	-na	.	4Bn/ 4d/	.	4B-/ 4d/	.	4g/	.	.	.	.	.	.	.	.	.	.
4G\	.	.	.	.	.	8r	.	.	4B/ 4d/	.	4B-/ 4d/	.	8r	.	.	.	.	.	.	.	.	.	.
.	.	.	.	.	.	8g\L	Ma-	.	.	.	.	.	8gL\	.	.	.	.	.	.	.	.	.	.
4r	.	.	.	.	.	8a\	.	.	4r	.	4r	.	8a/	.	.	.	.	.	.	.	.	.	.
!	!	!	!	!	!	!	!	!	!	!	!	!	!LO:SIC:v=b zamiast h	!	!	!	!	!	!	!	!	!	!
.	.	.	.	.	.	8bn\J	-ter	.	.	.	.	.	8b-\J	.	.	.	.	.	.	.	.	.	.
=37	=37	=37	=37	=37	=37	=37	=37	=37	=37	=37	=37	=37	=37	=37	=37	=37	=37	=37	=37	=37	=37	=37	=37
!LO:PB:g=original	!	!	!	!	!	!	!	!	!	!	!	!	!	!	!	!	!	!	!	!	!	!	!
4G\	n	.	1r	.	.	4cc#X\	mi-	.	4r	.	4r	.	4cc#X\	.	1r	1ryy	.	1r	.	1r	.	1r	.
4GG/	.	.	.	.	.	4dd\	-se-	.	4G\ 4d\	.	4G/ 4f/	.	4dd\	.	.	.	.	.	.	.	.	.	.
4G\	.	.	.	.	.	8r	.	.	4G\ 4d\	.	4G/ 4f/	.	8r	.	.	.	.	.	.	.	.	.	.
.	.	.	.	.	.	8dd\	-ri-	.	.	.	.	.	(>8dd\L	.	.	.	.	.	.	.	.	.	.
4r	.	.	.	.	.	8ee\	.	.	4r	.	4r	.	8ee\	.	.	.	.	.	.	.	.	.	.
.	.	.	.	.	.	8dd\	-cor-	.	.	.	.	.	8dd\J)	.	.	.	.	.	.	.	.	.	.
=38	=38	=38	=38	=38	=38	=38	=38	=38	=38	=38	=38	=38	=38	=38	=38	=38	=38	=38	=38	=38	=38	=38	=38
4C\	8	.	1r	.	.	4dd#X\	-di-	.	4r	.	4r	.	4dd#X\	.	1r	1ryy	.	1r	.	1r	.	1r	.
4c\	.	.	.	.	.	4ee\	-a	.	4c\ 4e\	.	4c/ 4e/	.	4ee\	.	.	.	.	.	.	.	.	.	.
4C/	.	.	.	.	.	4r	.	.	4c\ 4e\	.	4c/ 4e/	.	4r	.	.	.	.	.	.	.	.	.	.
4r	.	.	.	.	.	8.ee\L	vi-	.	4r	.	4r	.	4r	.	.	.	.	.	.	.	.	.	.
.	.	.	.	.	.	16ee\Jk	-ta	.	.	.	.	.	.	.	.	.	.	.	.	.	.	.	.
=39	=39	=39	=39	=39	=39	=39	=39	=39	=39	=39	=39	=39	=39	=39	=39	=39	=39	=39	=39	=39	=39	=39	=39
!	!	!	!	!	!	!LO:PB:g=original	!	!LO:DY:b	!LO:PB:g=original	!	!	!	!LO:PB:g=original	!	!	!	!	!	!	!	!	!	!
4r	.	.	1r	.	.	4.ee\	dul-	f	4r	f	4r	f	4r	f	4r	4ryy	f	4r	.	4r	.	4r	.
!	!	!	!	!	!	!	!	!	!LO:SIC:v=b zamiast h	!	!LO:SIC:v=b zamiast h	!	!	!	!	!	!	!LO:SIC:v=g zamiast gis	!	!LO:SIC:v=b zamiast h	!	!	!
.	.	.	.	.	.	.	.	.	.	.	.	.	.	.	.	.	.	.	.	.	f	.	.
8.E\L	#	.	.	.	.	.	.	.	8.B-\L 8.e\	.	8.B-/L 8.e/	.	8.g#XL\ 8.bn\	.	8.e/L	8.e\L	.	8.gL\	.	8.b-\L	.	8.gg#X\L	f
.	.	.	.	.	.	8g#X\	-ce-	.	.	.	.	.	.	.	.	.	.	.	.	.	.	.	.
16E\Jk	.	.	.	.	.	.	.	.	16B-\Jk 16e\	.	16B-/Jk 16e/	.	16g#/Jk 16b/	.	16e/Jk	16e\Jk	.	16g#X/Jk	.	16b-\Jk	.	16gg#\Jk	.
4E\	.	.	.	.	.	4g#\	-do	.	4B-\ 4e\	.	4B-/ 4e/	.	4g#\ 4b\	.	4e/	4e\	.	4g#\	.	4b-\	.	4gg#\	.
4r	.	.	.	.	.	8.ee\L	et	.	4r	.	4r	.	4r	.	4r	4ryy	.	4r	.	4r	.	4r	.
.	.	.	.	.	.	16ee\Jk	spes	.	.	.	.	.	.	.	.	.	.	.	.	.	.	.	.
=40	=40	=40	=40	=40	=40	=40	=40	=40	=40	=40	=40	=40	=40	=40	=40	=40	=40	=40	=40	=40	=40	=40	=40
!	!	!	!	!	!	!	!	!LO:DY:b	!	!	!	!	!	!	!	!	!	!	!	!	!	!LO:PB:g=original	!
4r	.	.	1r	.	.	4.ee\	no-	f	4r	f	4r	.	4r	.	4r	4ryy	.	4r	.	4r	.	4r	.
8.A\L	.	.	.	.	.	.	.	.	8.A/L 8.e/	.	8.e\L 8.a\	f	8.e/L 8.a/	.	8.a/L	8.e\L	.	8.aL\	.	8.cc\L	.	8.aa\L	f
.	n	.	.	.	.	8a\	.	.	.	.	.	.	.	.	.	.	.	.	.	.	.	.	.
16A\Jk	.	.	.	.	.	.	.	.	16A/Jk 16e/	.	16e\Jk 16a\	.	16e/Jk 16a/	.	16a/Jk	16e\Jk	.	16a/Jk	.	16cc\Jk	.	16aa\Jk	.
.	.	.	.	.	.	.	.	.	.	.	.	.	.	.	.	.	.	.	.	.	f	.	.
4A\	.	.	.	.	.	4a\	-stra	.	4A/ 4e/	.	4e\ 4a\	.	4e/ 4a/	.	4a/	4e\	.	4a\	.	4cc\	.	4aa\	.
4r	.	.	.	.	.	8b-\	Sal-	.	4r	.	4r	.	4r	.	4r	4ryy	.	4r	.	4r	.	4r	.
.	.	.	.	.	.	8cc\	.	.	.	.	.	.	.	.	.	.	.	.	.	.	.	.	.
=41	=41	=41	=41	=41	=41	=41	=41	=41	=41	=41	=41	=41	=41	=41	=41	=41	=41	=41	=41	=41	=41	=41	=41
!	!	!	!	!	!	!	!	!	!	!	!LO:PB:g=original	!	!	!	!	!	!	!	!	!	!	!	!
!	!	!	!	!	!	!LO:SIC:v=niejednoznaczny zapis ozdobnik	!	!	!LO:SIC:v=b zamiast h	!	!LO:SIC:v=b zamiast h	!	!	!	!	!	!	!	!	!	!	!	!
1E\	#	.	1r	.	.	2b-\w	-ve	.	2B-\ 2e\	.	2B-/ 2e/	.	2g#X/ 2bn/	.	2e/	2eyy\	.	1r	.	1r	.	1r	.
!	!	!	!	!	!	!	!	!LO:DY:b	!	!	!	!	!	!	!	!	!	!	!	!	!	!	!
.	.	.	.	.	.	(>4.ff\	Re-	p	8r	p	8r	p	4.f/	.	2e/	2eyy\	.	.	.	.	.	.	.
.	.	.	.	.	.	.	.	.	8B-\L 8e\	.	8B-/L 8e/	.	.	.	.	.	.	.	.	.	.	.	.
.	.	.	.	.	.	.	.	.	8B-\ 8e\	.	8B-/ 8e/	.	.	.	.	.	.	.	.	.	.	.	.
.	.	.	.	.	.	8g#X\)	-gi-	.	8B-\J 8e\	.	8B-/J 8e/	.	8g#/	.	.	.	.	.	.	.	.	.	.
=42	=42	=42	=42	=42	=42	=42	=42	=42	=42	=42	=42	=42	=42	=42	=42	=42	=42	=42	=42	=42	=42	=42	=42
!	!	!	!	!	!	!LO:PB:g=original	!	!	!	!	!	!	!	!	!	!	!	!	!	!LO:PB:g=original	!	!	!
4AA/	.	.	1r	.	.	2a\	-na	.	4r	.	4r	.	2a/	.	4r	4ryy	.	4r	.	4r	.	4r	.
4A\	n	.	.	.	.	.	.	.	8.A/L 8.e/	.	8.e\L 8.a\	.	.	.	8.a/L	8.e\L	.	8.aL\	.	8.cc\L	.	8.aa\L	.
.	.	.	.	.	.	.	.	.	16A/Jk 16e/	.	16e\Jk 16a\	.	.	.	16a/Jk	16e\Jk	.	16a/Jk	.	16cc\Jk	.	16aa\Jk	.
4AA/	.	.	.	.	.	4r	.	.	4A/ 4e/	.	4e/ 4a/	.	4r	p	4a/	4e\	.	4a\	.	4cc\	.	4aa\	.
4r	.	.	.	.	.	8.g\	et	.	4r	.	4r	.	8.gnL\	.	4r	4ryy	.	4r	.	4r	.	4r	.
.	.	.	.	.	.	16g\	spes	.	.	.	.	.	16g/Jk	.	.	.	.	.	.	.	.	.	.
=43	=43	=43	=43	=43	=43	=43	=43	=43	=43	=43	=43	=43	=43	=43	=43	=43	=43	=43	=43	=43	=43	=43	=43
!LO:PB:g=original	!	!	!	!	!	!	!	!	!	!	!	!	!	!	!	!	!	!	!	!	!	!	!
4GG/	8 n	.	1r	.	.	4a\	no-	.	4r	p	4r	p	4a\	.	1r	1ryy	.	1r	.	1r	.	1r	.
4G\	.	.	.	.	.	4g\	-stra	.	4G\ 4d\	.	4G/ 4f/	.	4g\	.	.	.	.	.	.	.	.	.	.
4GG/	.	.	.	.	.	8r	.	.	4G\ 4d\	.	4G/ 4f/	.	8r	.	.	.	.	.	.	.	.	.	.
.	.	.	.	.	.	(>8ff\	no-	.	.	.	.	.	(>8ff\L	.	.	.	.	.	.	.	.	.	.
4r	.	.	.	.	.	8ee\)	.	.	4r	.	4r	.	8ee\	.	.	.	.	.	.	.	.	.	.
.	.	.	.	.	.	8dd\	-stra	.	.	.	.	.	8dd\J)	.	.	.	.	.	.	.	.	.	.
=44	=44	=44	=44	=44	=44	=44	=44	=44	=44	=44	=44	=44	=44	=44	=44	=44	=44	=44	=44	=44	=44	=44	=44
!	!	!	!	!	!	!	!	!	!	!	!	!	!LO:PB:g=original	!	!	!	!	!	!	!	!	!	!
4C\	8	.	1r	.	.	4ee\	Sal-	.	4r	.	4r	.	4ee\	.	1r	1ryy	.	1r	.	1r	.	1r	.
4c\	.	.	.	.	.	4cc\	-ve	.	4G\ 4e\	.	4G/ 4e/	.	4cc\	.	.	.	.	.	.	.	.	.	.
4C/	.	.	.	.	.	8r	.	.	4G\ 4e\	.	4G/ 4e/	.	8r	.	.	.	.	.	.	.	.	.	.
.	.	.	.	.	.	8cc\	Ma-	.	.	.	.	.	8cc\L	.	.	.	.	.	.	.	.	.	.
4r	.	.	.	.	.	8bn\	.	.	4r	.	4r	.	8bn\	.	.	.	.	.	.	.	.	.	.
.	.	.	.	.	.	8a\	-ter	.	.	.	.	.	8a/J	.	.	.	.	.	.	.	.	.	.
=45	=45	=45	=45	=45	=45	=45	=45	=45	=45	=45	=45	=45	=45	=45	=45	=45	=45	=45	=45	=45	=45	=45	=45
!	!	!	!	!	!	!LO:PB:g=original	!	!	!	!	!	!	!	!	!	!	!	!	!	!	!	!	!
4GG/	8 n	.	1r	.	.	4a\	mi-	.	4r	.	4r	.	4a\	.	1r	1ryy	.	1r	.	1r	.	1r	.
4G\	.	.	.	.	.	4g\	-se-	.	4G/ 4f/	.	4G/ 4f/	.	4g\	.	.	.	.	.	.	.	.	.	.
4GG/	.	.	.	.	.	8r	.	.	4G/ 4f/	.	4G/ 4f/	.	8r	.	.	.	.	.	.	.	.	.	.
.	.	.	.	.	.	(>8ff\	-ri-	.	.	.	.	.	(>8ff\L	.	.	.	.	.	.	.	.	.	.
4r	.	.	.	.	.	8ee\	.	.	4r	.	4r	.	8ee\	.	.	.	.	.	.	.	.	.	.
.	.	.	.	.	.	8dd\)	-cor-	.	.	.	.	.	8dd\J)	.	.	.	.	.	.	.	.	.	.
=46	=46	=46	=46	=46	=46	=46	=46	=46	=46	=46	=46	=46	=46	=46	=46	=46	=46	=46	=46	=46	=46	=46	=46
4C\	.	.	1r	.	.	4ee\	-di-	.	4r	.	4r	.	4ee\	.	1r	1ryy	.	1r	.	1r	.	1r	.
4c\	.	.	.	.	.	4cc\	-a	.	4c\ 4e\	.	4G/ 4e/	.	4cc\	.	.	.	.	.	.	.	.	.	.
4C/	.	.	.	.	.	8r	.	.	4c\ 4e\	.	4G/ 4e/	.	2r	.	.	.	.	.	.	.	.	.	.
.	.	.	.	.	.	8cc\	ad	.	.	.	.	.	.	.	.	.	.	.	.	.	.	.	.
!	!	!	!	!	!	!LO:TX:a:t=sic!&colon; b zamiast h	!	!	!	!	!	!	!	!	!	!	!	!	!	!	!	!	!
4r	.	.	.	.	.	8b-\	.	.	4r	.	4r	.	.	.	.	.	.	.	.	.	.	.	.
.	.	.	.	.	.	8cc\	te	.	.	.	.	.	.	.	.	.	.	.	.	.	.	.	.
=47	=47	=47	=47	=47	=47	=47	=47	=47	=47	=47	=47	=47	=47	=47	=47	=47	=47	=47	=47	=47	=47	=47	=47
!	!	!	!	!	!	!	!	!LO:DY:b	!LO:PB:g=original	!	!	!	!	!	!	!	!	!LO:PB:g=original	!	!	!	!	!
4r	.	.	1r	.	.	4ee-X\	Su-	f	4r	.	4r	.	4r	f	4r	4ryy	f	4r	.	4r	.	4r	.
.	.	.	.	.	.	.	.	.	.	.	.	.	.	.	.	.	.	.	.	.	.	.	.
.	.	.	.	.	.	.	.	.	.	.	.	.	.	.	.	.	.	.	.	.	f	.	.
4C/	8 6	.	.	.	.	4cc\	-spi-	.	4c\ 4e-X\	.	4c/ 4e-X/	.	4e-X/ 4cc/	.	4cc/	4c\	.	4e-X/	f	4cc\	.	4ccc\	.
.	.	.	.	.	.	.	.	.	.	.	.	.	.	.	.	.	.	.	.	.	.	.	f
4C/	.	.	.	.	.	8r	.	.	4c\ 4e-\	.	4c/ 4e-/	.	4e-/ 4cc/	.	4cc/	4c\	.	4e-/	.	4cc\	.	4ccc\	.
.	.	.	.	.	.	8cc\	-ra-	.	.	.	.	.	.	.	.	.	.	.	.	.	.	.	.
4r	.	.	.	.	.	8bn\	.	.	4r	.	4r	.	4r	.	4r	4ryy	.	4r	.	4r	.	4r	.
.	.	.	.	.	.	8cc\	.	.	.	.	.	.	.	.	.	.	.	.	.	.	.	.	.
=48	=48	=48	=48	=48	=48	=48	=48	=48	=48	=48	=48	=48	=48	=48	=48	=48	=48	=48	=48	=48	=48	=48	=48
!	!	!	!	!	!	!LO:PB:g=original	!	!LO:DY:b	!	!	!	!	!	!	!	!	!	!	!	!	!	!	!
*	*	*	*	*	*	*	*	*	*rep	*	*	*	*	*	*	*	*	*	*	*	*	*rep	*
4r	.	.	1r	.	.	4ee-X\	.	f	4r	.	4r	.	4r	.	4r	4ryy	.	4r	.	4r	.	4r	.
4C/	8 6	.	.	.	.	4cc\	-mus	.	4c\ 4e-X\	.	4c/ 4e-X/	.	4e-X/ 4cc/	.	4cc/	4c\	.	4e-X/	.	4cc\	.	4ccc\	.
4C/	.	.	.	.	.	8r	.	.	4c\ 4e-\	.	4c/ 4e-/	.	4e-/ 4cc/	.	4cc/	4c\	.	4e-/	.	4cc\	.	4ccc\	.
.	.	.	.	.	.	8g\	ge-	.	.	.	.	.	.	.	.	.	.	.	.	.	.	.	.
4r	.	.	.	.	.	8a\	.	.	4r	.	4r	.	4r	.	4r	4ryy	.	4r	.	4r	.	4r	.
.	.	.	.	.	.	8g\	.	.	.	.	.	.	.	.	.	.	.	.	.	.	.	.	.
*	*	*	*	*	*	*	*	*	*Xrep	*	*	*	*	*	*	*	*	*	*	*	*	*Xrep	*
=49	=49	=49	=49	=49	=49	=49	=49	=49	=49	=49	=49	=49	=49	=49	=49	=49	=49	=49	=49	=49	=49	=49	=49
!LO:PB:g=original	!	!	!	!	!	!	!	!LO:DY:b	!	!	!	!	!	!	!	!	!	!	!	!	!	!	!
2C/	n	.	1r	.	.	4een\	-nen-	p	2c\ 2en\	.	2c/ 2en/	.	(>4een\	p	2cc/	2c\	.	2en/	.	2cc\	.	4r	.
.	.	.	.	.	.	8dd\	.	.	.	.	.	.	8dd\L	.	.	.	.	.	.	.	.	4ccc\	.
.	.	.	.	.	.	8cc\	-tes	.	.	.	.	.	8cc\J)	.	.	.	.	.	.	.	.	.	.
!	!	!	!	!	!	!LO:SIC:v=niejednoznaczny podział sylab	!	!	!	!	!	!	!	!	!	!	!	!	!	!	!	!	!
!	!	!	!	!	!	!LO:SIC:v=niejednoznaczny zapis ozdobnik	!	!	!	!	!	!	!LO:SIC:v=niejednoznaczny zapis ozdobnik	!	!	!	!	!	!	!	!	!	!
2G\	8	.	.	.	.	2bn\W	et flen-	.	2G\ 2d\	.	2Bn/ 2d/	.	2bn\W	.	2g/	2g\	.	4g/	.	4bn\	.	8r	.
.	.	.	.	.	.	.	.	.	.	.	.	.	.	.	.	.	.	.	.	.	.	(>8gg\L	.
.	.	.	.	.	.	.	.	.	.	.	.	.	.	.	.	.	.	4g/	.	4g/	.	8aa\	p
.	.	.	.	.	.	.	.	.	.	.	.	.	.	.	.	.	.	.	.	.	.	8gg\J)	.
=50	=50	=50	=50	=50	=50	=50	=50	=50	=50	=50	=50	=50	=50	=50	=50	=50	=50	=50	=50	=50	=50	=50	=50
!	!	!	!	!	!	!	!	!	!	!	!	!	!LO:PB:g=original	!	!LO:PB:g=original	!	!	!	!	!	!	!LO:PB:g=original	!
.	.	.	.	.	.	.	.	.	.	.	.	.	.	.	.	.	.	.	.	.	.	8qgg/	.
4C\	.	.	2r	.	.	2cc\	-tes	.	4C/	.	4c/	.	4e\ 4cc\	.	2cc/	2c\	.	4e/	.	4cc\	.	(>4eee\	.
4c\	.	.	.	.	.	.	.	.	4c\ 4e\	.	4e\ 4cc\	.	4e\ 4cc\	.	.	.	.	4e/	.	4cc\	.	8ddd\L	.
.	.	.	.	.	.	.	.	.	.	.	.	.	.	.	.	.	.	.	.	.	.	8ccc\J)	.
!	!	!	!	!	!	!	!	!	!	!	!	!	!	!	!	!	!	!	!	!	!	!LO:TX:a:t=problem&colon;niejednoznaczny zapis ozdobnik	!
4C/	.	.	8r	.	.	8r	.	.	4c\ 4e\	.	4e\ 4cc\	.	4e\ 4cc\	.	2r	2ryy	.	4e/	.	4cc\	.	2bbn\W	.
.	.	.	8c\L	ad	.	8cc\	ad	.	.	.	.	.	.	.	.	.	.	.	.	.	.	.	.
4r	.	.	(>8Bn\	te	.	8bn\	te	.	4r	.	4r	.	4r	.	.	.	.	4r	.	4r	.	.	.
.	.	.	8c\J)	cla-	.	8cc\	cla-	.	.	.	.	.	.	.	.	.	.	.	.	.	.	.	.
=51	=51	=51	=51	=51	=51	=51	=51	=51	=|:51	=51	=51	=51	=51	=51	=51	=51	=51	=51	=51	=51	=51	=51	=51
!	!	!	!	!	!	!LO:PB:g=original	!	!	!	!	!	!	!	!	!	!	!	!	!	!LO:PB:g=original	!	!	!
!	!	!	!	!	!	!	!	!	!LO:TX:a:t=P:problem:takty 51-72 zapisane powtórką	!	!	!	!	!	!	!	!	!	!	!	!	!	!
8C/	7	.	4B-X\	-ma-	.	4dd\	-ma-	.	8r	p	8r	p	8r	p	2cc/	2c\	.	8r	.	8r	.	2ccc\	.
8r	.	.	.	.	.	.	.	.	8c\ 8e\	.	8g\ 8b-X\	.	8g\ 8b-X\	.	.	.	.	8g\	p	8b-X\	.	.	.
8c\	.	.	4G\	-mus	.	4b-X\	-mus	.	8r	.	8r	.	8r	.	.	.	.	8r	.	8r	p	.	.
8r	.	.	.	.	.	.	.	.	8c\ 8e\	.	8g\ 8b-\	.	8g\ 8b-\	.	.	.	.	8g\	.	8b-\	.	.	.
8C/	.	.	8r	.	.	8r	.	.	8r	.	8r	.	8r	.	2cc/	2c\	.	8r	.	8r	.	2r	.
!	!	!	!LO:TX:t=P:powtórka tekstu:problem	!	!	!LO:SIC:o:v=dodane powtórzenie tekstu	!	!	!	!	!	!	!	!	!	!	!	!	!	!	!	!	!
!	!	!	!	!	!	!	!	!	!LO:PB:g=original	!	!	!	!	!	!	!	!	!	!	!	!	!	!
8r	.	.	8EL\	{ad	.	8g\	{ad	.	8c\ 8e\	.	8g\ 8b-\	.	8g\ 8b-\	.	.	.	.	8g\	.	8b-\	.	.	.
8c\	.	.	8G/	te	.	8b-\	te	.	8r	.	8r	.	8r	.	.	.	.	8r	.	8r	.	.	.
8r	.	.	8B-\J	cla-	.	8dd\	cla-	.	8c\ 8e\	.	8g\ 8b-\	.	8g\ 8b-\	.	.	.	.	8g\	.	8b-\	.	.	.
=52	=52	=52	=52	=52	=52	=52	=52	=52	=52	=52	=52	=52	=52	=52	=52	=52	=52	=52	=52	=52	=52	=52	=52
8F\	8	.	4A\	-ma-	.	4cc\	-ma-	.	8r	.	8r	.	8r	.	2a/	2c\	.	8r	.	8r	.	1r	.
8r	.	.	.	.	.	.	.	.	8A\ 8f\	.	8f\ 8a\	.	8f\ 8a\	.	.	.	.	8f\	.	8a\	.	.	.
8FF/	.	.	4F/	-mus}	.	4a\	-mus}	.	8r	.	8r	.	8r	.	.	.	.	8r	.	8r	.	.	.
8r	.	.	.	.	.	.	.	.	8A\ 8f\	.	8f\ 8a\	.	8f\ 8a\	.	.	.	.	8f\	.	8a\	.	.	.
!	!	!	!	!	!	!	!	!	!	!	!	!	!	!	!	!	!	!LO:PB:g=original	!	!	!	!	!
8F\	.	.	8r	.	.	8r	.	.	8r	.	8r	.	8r	.	2a/	2c\	.	8r	.	8r	.	.	.
*	*	*	*	*	*	*	*	*	*	*	*	*	*	*	*	*	*	*tremolo	*	*	*	*	*
8r	.	.	(>8FL\	ex-	.	8a\	ex-	.	8A\ 8f\	.	8f\ 8a\	.	8aa\L	.	.	.	.	8fL\	.	8a/L	.	.	.
8FF/	.	.	8A\	-u-	.	8cc\	-u-	.	8r	.	8r	.	8ccc\	.	.	.	.	8f/	.	8cc\	.	.	.
8r	.	.	8A\J)	-les	.	8ff\	-les	.	8A\ 8f\	.	8f\ 8a\	.	8fff\J	.	.	.	.	8f/J	.	8ff\J	.	.	.
=53	=53	=53	=53	=53	=53	=53	=53	=53	=53	=53	=53	=53	=53	=53	=53	=53	=53	=53	=53	=53	=53	=53	=53
!	!	!	!LO:PB:g=original	!	!	!	!	!	!	!	!LO:PB:g=original	!	!	!	!	!	!	!	!	!	!	!	!
4C/	.	.	(>8c\L	Fi-	.	(>8ee\L	Fi-	.	8c\ 8e\	.	8r	.	(>8eee\L	.	2cc/	2c\	.	(>8cc\L	p	(>8ee\L	.	1r	.
.	.	.	8B-\)	.	.	8dd\J)	.	.	8r	.	8g\ 8b-\	.	8ddd\)	.	.	.	.	8b-\J)	.	8dd\J)	.	.	.
4c\	.	.	(>8B-\	-lii	.	(>8dd\L	-lii	.	8c\ 8e\	.	8r	.	(>8ddd\	.	.	.	.	(>8b-L\	.	(>8dd\L	.	.	.
.	.	.	8A\J)	.	.	8cc\J)	.	.	8r	.	8g\ 8b-\	.	8ccc\J)	.	.	.	.	8a/J)	.	8cc\J)	.	.	.
!LO:PB:g=original	!	!	!	!	!	!	!	!	!	!	!	!	!	!	!	!	!	!	!	!	!	!	!
4C/	.	.	(>8AL\	E-	.	(>8cc\L	E-	.	8c\ 8e\	.	8r	.	(>8ccc\L	.	2cc/	2c\	.	(>8aL\	.	(>8cc\L	.	.	.
.	.	.	8G/)	.	.	8b-\J)	.	.	8r	.	8g\ 8b-\	.	8bb-\)	.	.	.	.	8g/J)	.	8b-\J)	.	.	.
4c\	.	.	(>8G/	.	.	(>8b-\L	.	.	8c\ 8e\	.	8r	.	(>8bb-\	.	.	.	.	(>8gL\	.	(>8b-\L	.	.	.
!	!	!	!LO:SIC:o:v=znaczek na dźwikiem. Spirala.	!	!	!	!	!	!	!	!	!	!	!	!	!	!	!	!	!	!	!	!
.	.	.	8F/J)	.	.	8a\J)	.	.	8r	.	8g\ 8b-\	.	8gg\J)	.	.	.	.	8e/J)	.	8g/J)	.	.	.
=54	=54	=54	=54	=54	=54	=54	=54	=54	=54	=54	=54	=54	=54	=54	=54	=54	=54	=54	=54	=54	=54	=54	=54
!	!	!	!	!	!	!LO:LB:g=original	!	!	!	!	!	!	!	!	!	!	!	!	!	!	!	!	!
8C/	.	.	4G\	.	.	4b-\	.	.	8r	.	8r	.	4bb-\	.	8r	8ryy	.	4g\	.	4b-\	.	1r	.
8r	.	.	.	.	.	.	.	.	8c\ 8e\	<	8g\ 8b-\	<	.	.	8cc/	8c\	.	.	.	.	.	.	.
*	*	*	*	*	*	*	*	*	*Xtremolo	*	*Xtremolo	*	*	*	*	*	*	*	*	*	*	*	*
4F\	.	.	4F\	-ve	.	4a\	-ve	.	8A\L 8f\	.	8f/L 8a/	.	4aa\	.	4a/	4f\	.	4f\	.	4a\	.	.	.
.	.	.	.	.	.	.	.	.	8A\J 8f\	.	8f\J 8a\	.	.	.	.	.	.	.	.	.	.	.	.
4FF/	.	.	8r	.	.	8r	.	.	4A\ 4f\	.	4f\ 4a\	.	8r	.	2r	2ryy	.	4r	.	4r	.	.	.
.	.	.	.	.	.	.	.	.	.	.	.	.	8qdd/	.	.	.	.	.	.	.	.	.	.
.	.	.	8c\L	ad	.	8cc\	ad	.	.	.	.	.	8cc\L	.	.	.	.	.	.	.	.	.	.
!	!	!	!	!	!	!LO:SIC:v= b zamiast h	!	!	!	!	!	!	!	!	!	!	!	!	!	!	!	!	!
4r	.	.	(>8Bn\	.	.	8b-\	.	.	4r	[	4r	[	8bn\	.	.	.	.	4r	.	4r	.	.	.
.	.	.	8c\J)	te	.	8cc\	te	.	.	.	.	.	8cc\J	.	.	.	.	.	.	.	.	.	.
=55	=55	=55	=55	=55	=55	=55	=55	=55	=55	=55	=55	=55	=55	=55	=55	=55	=55	=55	=55	=55	=55	=55	=55
!	!	!	!	!	!	!LO:PB:g=original	!	!	!	!	!LO:PB:g=original	!	!LO:PB:g=original	!	!	!	!	!	!	!	!	!	!
8C/	7	.	4B-X\	Su-	.	4dd\	Su-	.	8r	.	8r	.	8r	.	2cc/	2c\	.	8r	.	8r	.	1r	.
.	.	.	.	.	.	.	.	.	.	p	.	.	.	.	.	.	.	.	.	.	.	.	.
8r	.	.	.	.	.	.	.	.	8c\ 8e\	.	8g\ 8b-\	.	8g\ 8b-X\	.	.	.	.	8g\	.	8b-\	.	.	.
8c\	.	.	4G\	-spi-	.	4b-\	-spi-	.	8r	.	8r	.	8r	.	.	.	.	8r	.	8r	.	.	.
8r	.	.	.	.	.	.	.	.	8c\ 8e\	.	8g\ 8b-\	.	8g\ 8b-\	.	.	.	.	8g\	.	8b-\	.	.	.
!	!	!	!	!	!	!	!	!	!LO:PB:g=original	!	!	!	!	!	!	!LO:TX:t=P:2c w drugiej waltorni zapisane przez znak powtórki:problem	!	!	!	!	!	!	!
8C/	.	.	8r	.	.	8r	.	.	8r	.	8r	.	8r	.	2cc/	2cyy\	.	8r	.	8r	.	.	.
8r	.	.	(>8EL\	-ra-	.	8g\	-ra-	.	8c\ 8e\	.	8g\ 8b-\	.	8g\ 8b-\	.	.	.	.	8g\	.	8b-\	.	.	.
8c\	.	.	8G/	.	.	8b-\	.	.	8r	.	8r	.	8r	.	.	.	.	8r	.	8r	.	.	.
8r	.	.	8B-\J)	.	.	8dd\	.	.	8c\ 8e\	.	8g\ 8b-\	.	8g\ 8b-\	.	.	.	.	8g\	.	8b-\	.	.	.
=56	=56	=56	=56	=56	=56	=56	=56	=56	=56	=56	=56	=56	=56	=56	=56	=56	=56	=56	=56	=56	=56	=56	=56
!	!	!	!	!	!	!	!	!	!	!	!	!	!	!	!LO:PB:g=original	!	!	!	!	!LO:PB:g=original	!	!	!
8F\	8	.	4A\	.	.	4cc\	.	.	8r	.	8r	.	8r	.	2a/	2cyy\	.	8r	.	8r	.	1r	.
8r	.	.	.	.	.	.	.	.	8A\ 8f\	.	8f\ 8a\	.	8f\ 8a\	.	.	.	.	8f\	.	8a\	.	.	.
8FF/	.	.	4F\	-mus	.	4a\	-mus	.	8r	.	8r	.	8r	.	.	.	.	8r	.	8r	.	.	.
8r	.	.	.	.	.	.	.	.	8A\ 8f\	.	8f\ 8a\	.	8f\ 8a\	.	.	.	.	8f\	.	8a\	.	.	.
8F\	.	.	8r	.	.	8r	.	.	8r	.	8r	.	8r	.	2a/	2cyy\	.	8r	.	8r	.	.	.
8r	.	.	8FL\	ge-	.	8a\	ge-	.	8A\ 8f\	.	8f\ 8a\	.	8aa\L	.	.	.	.	8fL\	.	8aL\	.	.	.
8FF/	.	.	8A\	-men-	.	8cc\	.	.	8r	.	8r	.	8ccc\	.	.	.	.	8f/	.	8cc\	.	.	.
8r	.	.	8A\J	-tes	.	8ff\	-men-	.	8A\ 8f\	.	8f\ 8a\	.	8fff\J	.	.	.	.	8f/J	.	8a/J	.	.	.
=57	=57	=57	=57	=57	=57	=57	=57	=57	=57	=57	=57	=57	=57	=57	=57	=57	=57	=57	=57	=57	=57	=57	=57
!	!	!	!	!	!	!	!	!	!	!	!	!	!	!	!	!	!	!LO:PB:g=original	!	!	!	!	!
4C/	.	.	(>8c\L	et	.	(>8ee\L	-tes	.	8c\ 8e\	.	8g\ 8b-\	.	(>8eee\L	.	2cc/	2cyy\	.	(>8cc\L	.	(>8ee\L	.	1r	.
.	.	.	8B-\)	.	.	8dd\J)	.	.	8r	.	8r	.	8ddd\)	.	.	.	.	8b-\J)	.	8dd\J)	.	.	.
4c\	.	.	(>8B-\	flen-	.	(>8dd\L	et	.	8c\ 8e\	.	8g\ 8b-\	.	(>8ddd\	.	.	.	.	(>8b-L\	.	(>8dd\L	.	.	.
.	.	.	8A\J)	.	.	8cc\J)	.	.	8r	.	8r	.	8ccc\J)	.	.	.	.	8a/J)	.	8cc\J)	.	.	.
!	!	!	!	!	!	!	!	!	!	!	!LO:PB:g=original	!	!	!	!	!	!	!	!	!	!	!	!
4C/	.	.	(>8AL\	.	.	(>8cc\L	flen-	.	8c\ 8e\	.	8g\ 8b-\	.	(>8ccc\L	.	2cc/	2cyy\	.	(>8aL\	.	(>8cc\L	.	.	.
.	.	.	8G/)	.	.	8b-\J)	.	.	8r	.	8r	.	8bb-\)	.	.	.	.	8g/J)	.	8b-\J)	.	.	.
4c\	.	.	(>8G/	-tes	.	(>8b-\L	-tes	.	8c\ 8e\	.	8g\ 8b-\	.	(>8bb-\	.	.	.	.	(>8gL\	.	(>8b-\L	.	.	.
!	!	!	!LO:SIC:o:v=znaczek nad dźwiękiem.Spirala.	!	!	!	!	!	!	!	!	!	!	!	!	!	!	!	!	!	!	!	!
.	.	.	8F/J)	.	.	8g\J)	.	.	8r	.	8r	.	8gg\J)	.	.	.	.	8e/J)	.	8g/J)	.	.	.
=58	=58	=58	=58	=58	=58	=58	=58	=58	=58	=58	=58	=58	=58	=58	=58	=58	=58	=58	=58	=58	=58	=58	=58
!LO:PB:g=original	!	!	!	!	!	!	!	!	!	!	!	!	!	!	!	!	!	!	!	!	!	!	!
!LO:TX:a:i:t=Unisono	!	!	!	!	!	!	!	!	!	!	!	!	!	!	!	!	!	!	!	!	!	!	!
8FF/'	.	.	1r	.	.	1r	.	.	8r	.	8r	.	8r	f	1r	1ryy	.	8r	.	8r	.	8r	.
.	.	.	.	.	.	.	.	.	.	f	.	f	.	.	.	.	.	.	.	.	.	.	.
.	.	.	.	.	.	.	.	.	.	.	.	.	.	.	.	.	.	.	.	.	f	.	.
8r	.	.	.	.	.	.	.	.	8F/'	.	8f'\	.	8ff\'	.	.	.	.	8f\	.	8f/'	.	8ff\	f
8GG/'	.	.	.	.	.	.	.	.	8r	.	8r	.	8r	.	.	.	.	8r	f	8r	.	8r	.
8r	.	.	.	.	.	.	.	.	8G/'	.	8g'\	.	8gg\'	.	.	.	.	8g\	.	8g/'	.	8gg\	.
8AA/'	.	.	.	.	.	.	.	.	8r	.	8r	.	8r	.	.	.	.	8r\	.	8r	.	8r	.
8r	.	.	.	.	.	.	.	.	8A/'	.	8a'\	.	8aa\'	.	.	.	.	8f\	.	8a/'	.	8aa\	.
8BB-/'	.	.	.	.	.	.	.	.	8r	.	8r	.	8r	.	.	.	.	8r	.	8r	.	8r	.
8r	.	.	.	.	.	.	.	.	8B-/'	.	8b-'\	<	8bb-\'	.	.	.	.	8g\	.	8b-'/	.	8bb-\	.
=59	=59	=59	=59	=59	=59	=59	=59	=59	=59	=59	=59	=59	=59	=59	=59	=59	=59	=59	=59	=59	=59	=59	=59
!	!	!LO:HP:b	!	!	!	!	!	!	!	!	!	!	!LO:PB:g=original	!	!	!	!	!	!	!	!	!	!
8C/'	.	<	1r	.	.	1r	.	.	8r	.	8r	.	8r	<	1r	1ryy	.	8r	.	8r	.	8r	.
8r	.	.	.	.	.	.	.	.	8c\'	.	8cc\'	.	8ccc\'	.	.	.	.	8a\	.	8cc\'	.	8ccc\	<
8D\'	.	.	.	.	.	.	.	.	8r	.	8r	.	8r	.	.	.	.	8r	.	8r	.	8r	.
8r	.	.	.	.	.	.	.	.	8d\'	.	8dd\'	.	8ddd\'	.	.	.	.	8b-\	.	8dd\'	.	8ddd\	.
8C/'	.	.	.	.	.	.	.	.	8r	.	8r	.	8r	.	.	.	.	8r	.	8r	.	8r	.
!	!	!	!	!	!	!	!	!	!LO:PB:g=original	!	!	!	!	!	!	!	!	!	!	!	!	!	!
8r	.	.	.	.	.	.	.	.	8c\	.	8cc\'	.	8ccc\'	.	.	.	.	8a\	.	8cc\'	.	8ccc\	.
8E\'	.	.	.	.	.	.	.	.	8r	.	8r	.	8r	.	.	.	.	8r	.	8r	.	8r	.
8r	.	[[	.	.	.	.	.	.	8e\	.	8ee\'	[[	8eee\'	[[	.	.	.	8cc\	.	8ee\'	.	8eee\	[
=60	=60	=60	=60	=60	=60	=60	=60	=60	=60	=60	=60	=60	=60	=60	=60	=60	=60	=60	=60	=60	=60	=60	=60
!	!	!LO:DY:b	!	!	!	!	!	!	!	!	!	!	!	!	!	!	!	!	!	!LO:PB:g=original	!	!LO:PB:g=original	!
4F\	8	f	2r	.	.	8ff\'	in	.	8A\ 8f\	.	8a\ 8ff\	[	8ddd\	[	2a/	2cyyy\	.	1r	.	2r	.	8fff\'L	p:
.	.	.	.	.	.	16ee\'	hac	.	8r	.	8r	.	8r	.	.	.	.	.	.	.	.	16eee\'L	.
.	.	.	.	.	.	16dd\'	la-	.	.	.	.	.	.	.	.	.	.	.	.	.	.	16ddd\'JJ	.
4r	.	.	.	.	.	16cc\'	-chri-	.	4r	.	4r	.	4r	.	.	.	.	.	.	.	.	16ccc\'LL	.
.	.	.	.	.	.	16b-\'	.	.	.	.	.	.	.	.	.	.	.	.	.	.	.	16bb-\'	.
.	.	.	.	.	.	16a\'	-ma-	.	.	.	.	.	.	.	.	.	.	.	.	.	.	16aa\'	.
.	.	.	.	.	.	16g\'	-rum	.	.	.	.	.	.	.	.	.	.	.	.	.	.	16gg\'JJ	.
4C/	.	.	8d\'L	.	.	2r	.	.	8c\ 8e\	.	8g/ 8b-/	.	8ddd\	.	2cc/	2cyy\	.	.	.	8dd\'L	p:	2r	.
.	.	.	16c\'L	val-	.	.	.	.	8r	.	8r	.	8r	.	.	.	.	.	.	16cc\'L	.	.	.
.	.	.	16B-\'JJ	.	.	.	.	.	.	.	.	.	.	.	.	.	.	.	.	16b-\'JJ	.	.	.
4r	.	.	16A'LL\	.	.	.	.	.	4r	.	4r	.	4r	.	.	.	.	.	.	16a/'LL	.	.	.
.	.	.	16G/'	.	.	.	.	.	.	.	.	.	.	.	.	.	.	.	.	16g/'	.	.	.
.	.	.	16F/'	.	.	.	.	.	.	.	.	.	.	.	.	.	.	.	.	16f/'	.	.	.
.	.	.	16E/'JJ	.	.	.	.	.	.	.	.	.	.	.	.	.	.	.	.	16e/'JJ	.	.	.
=61	=61	=61	=61	=61	=61	=61	=61	=61	=61	=61	=61	=61	=61	=61	=61	=61	=61	=61	=61	=61	=61	=61	=61
!	!	!	!	!	!	!	!	!	!LO:TX:a:t=1.Vol	!	!	!	!	!	!	!	!	!	!	!	!	!	!
8r	.	.	2F\	-le	.	2r	.	.	8r	.	8r	.	2ff\	.	2a/	2cyy\	.	2f/	.	2f/	.	2ff\	.
*	*	*	*	*	*	*	*	*	*	*	*tremolo	*	*	*	*	*	*	*	*	*	*	*	*
8FL\	.	.	.	.	.	.	.	.	8F/L	.	8f/L 8a/	.	.	.	.	.	.	.	.	.	.	.	.
8C/	.	.	.	.	.	.	.	.	8A/	.	8f/ 8a/	.	.	.	.	.	.	.	.	.	.	.	.
8AA/J	.	.	.	.	.	.	.	.	8c\J	.	8f/J 8a/	.	.	.	.	.	.	.	.	.	.	.	.
.	.	.	.	.	.	.	.	.	.	.	.	f	.	.	.	.	.	.	.	.	.	.	.
4FF/	.	.	8r	.	.	8r	.	.	4A\ 4f\	.	4f/ 4a/	.	8r	p	2r	2ryy	.	2r	.	2r	.	2r	.
.	.	.	.	.	.	.	.	.	.	.	.	.	8qdd/	.	.	.	.	.	.	.	.	.	.
.	.	.	(>8c\L	ad	.	8cc\	ad	.	.	.	.	.	8cc\L	.	.	.	.	.	.	.	.	.	.
!	!	!	!	!	!	!LO:SIC:v= b zamiast h	!	!	!	!	!	!	!	!	!	!	!	!	!	!	!	!	!
4r	.	.	8Bn\	te	.	8b-\	te	.	4r	.	4r	.	8bn\	.	.	.	.	.	.	.	.	.	.
.	.	.	8c\J)	cla-	.	8cc\	cla-	.	.	.	.	.	8cc\J	.	.	.	.	.	.	.	.	.	.
=62	=62	=62	=62	=62	=62	=62	=62	=62	=:|62	=62	=62	=62	=62	=62	=62	=62	=62	=62	=62	=62	=62	=62	=62
!LO:PB:g=original	!	!	!	!	!	!	!	!	!	!	!LO:PB:g=original	!	!	!	!	!	!	!	!	!	!	!	!
8C\	7	.	4B-X\	-ma-	.	4dd\	-ma-	.	8ryy	.	8r	p	8r	.	2cc/	2cyy\	.	8r	.	8r	.	1r	.
8r	.	.	.	.	.	.	.	.	8cyy\ 8eyy\	.	8g\ 8b-\	.	8g\ 8b-X\	.	.	.	.	8g\	.	8b-\	.	.	.
8c\	.	.	4G\	-mus	.	4b-\	-mus	.	8ryy	.	8r	.	8r	.	.	.	.	8r	.	8r	.	.	.
8r	.	.	.	.	.	.	.	.	8cyy\ 8eyy\	.	8g\ 8b-\	.	8g\ 8b-\	.	.	.	.	8g\	.	8b-\	.	.	.
!	!	!	!	!	!	!	!	!	!	!	!	!	!	!	!	!	!	!LO:PB:g=original	!	!	!	!	!
8C/	.	.	8r	.	.	8r	.	.	8ryy	.	8r	.	8r	.	2cc/	2cyy\	.	8r	.	8r	.	.	.
!	!	!	!LO:TX:t=P:powtórka tekstu:problem	!	!	!LO:TX:t=P:dodana powtó©ka tekstu:problem	!	!	!	!	!	!	!	!	!	!	!	!	!	!	!	!	!
8r	.	.	8EL\	{ad	.	8g\	{ad	.	8cyy\ 8eyy\	.	8g\ 8b-\	.	8g\ 8b-\	.	.	.	.	8g/	.	8b-\	.	.	.
8c\	.	.	8G/	te	.	8b-\	te	.	8ryy	.	8r	.	8r	.	.	.	.	8r	.	8r	.	.	.
8r	.	.	8B-\J	cla-	.	8dd\	cla-	.	8cyy\ 8eyy\	.	8g\ 8b-\	.	8g\ 8b-\	.	.	.	.	8g/	.	8b-\	.	.	.
=63	=63	=63	=63	=63	=63	=63	=63	=63	=63	=63	=63	=63	=63	=63	=63	=63	=63	=63	=63	=63	=63	=63	=63
!	!	!	!LO:LB:g=original	!	!	!	!	!	!	!	!	!	!LO:LB:g=original	!	!	!	!	!	!	!	!	!	!
8F\	8	.	4A\	-ma-	.	4cc\	-ma-	.	8ryy	.	8r	.	8r	.	2a/	2cyy\	.	8r	.	8r	.	1r	.
8r	.	.	.	.	.	.	.	.	8Ayy\ 8fyy\	.	8f\ 8a\	.	8f\ 8a\	.	.	.	.	8f\	.	8a\	.	.	.
8FF/	.	.	4F\	-mus}	.	4a\	-mus}	.	8ryy	.	8r	.	8r	.	.	.	.	8r	.	8r	.	.	.
8r	.	.	.	.	.	.	.	.	8Ayy\ 8fyy\	.	8f\ 8a\	.	8f\ 8a\	.	.	.	.	8f\	.	8a\	.	.	.
8F\	.	.	8r	.	.	8r	.	.	8ryy	.	8r	.	8r	.	2a/	2cyy\	.	8r	.	8r	.	.	.
8r	.	.	(>8FL\	ex-	.	8a\	ex-	.	8Ayy/ yy/	.	8f\ 8a\\	.	8aa\L	.	.	.	.	8fL\	.	(>8a/L	.	.	.
8FF/	.	.	8A\)	-u-	.	8cc\	-u-	.	8ryy	.	8r	.	8ccc\	.	.	.	.	8f\	.	8cc\	.	.	.
8r	.	.	8A\J	-les	.	8ff\	-les	.	8Ayy\ 8fyy\	.	8f\ 8a\	.	8fff\J	.	.	.	.	8f/J	.	8ff\J)	.	.	.
=64	=64	=64	=64	=64	=64	=64	=64	=64	=64	=64	=64	=64	=64	=64	=64	=64	=64	=64	=64	=64	=64	=64	=64
4C/	.	.	(>8c\L	Fi-	.	(>8ee\L	Fi-	.	8cyy\ 8eyy\	.	8r	.	(>8eee\L	.	2cc/	2cyy\	.	(>8cc\L	.	(>8ee\L	.	1r	.
.	.	.	8B-\)	.	.	8dd\J)	.	.	8ryy	.	8g\ 8b-\	.	8ddd\)	.	.	.	.	8b-\J)	.	8dd\J)	.	.	.
4c\	.	.	(>8B-\	-lii	.	(>8dd\L	-lii	.	8cyy\ 8eyy\	.	8r	.	(>8ddd\	.	.	.	.	(>8b-L\	.	(>8dd\L	.	.	.
.	.	.	8A\J)	.	.	8cc\J)	.	.	8ryy	.	8g\ 8b-\	.	8ccc\J)	.	.	.	.	8a/J)	.	8cc\J)	.	.	.
!	!	!	!	!	!	!	!	!	!	!	!	!	!	!	!	!	!	!	!	!LO:PB:g=original	!	!	!
4C/	.	.	(>8AL\	E-	.	(>8cc\L	E-	.	8cyy\ 8eyy\	.	8r	.	(>8ccc\L	.	2cc/	2cyy\	.	(>8aL\	.	(>8cc\L	.	.	.
.	.	.	8G/)	.	.	8b-\J)	.	.	8ryy	.	8g\ 8b-\	.	8bb-\)	.	.	.	.	8g/J)	.	8b-\J)	.	.	.
4c\	.	.	(>8G/	.	.	(>8b-\L	.	.	8cyy\ 8eyy\	.	8r	.	(>8bb-\	.	.	.	.	(>8gL\	.	(>8b-L\	.	.	.
.	.	.	8E/J)	.	.	8g\J)	.	.	8ryy	.	8g\ 8b-\	.	8gg\J)	.	.	.	.	8e/J)	.	8g/J)	.	.	.
=65	=65	=65	=65	=65	=65	=65	=65	=65	=65	=65	=65	=65	=65	=65	=65	=65	=65	=65	=65	=65	=65	=65	=65
!	!	!	!	!	!	!LO:PB:g=original	!	!	!	!	!	!	!	!	!	!	!	!	!	!	!	!	!
8C/	.	.	4G\	.	.	4b-\	.	.	8ryy	.	8r	.	4bb-\	.	8r	8ryy	.	4g\	.	4b-\	.	1r	.
8r	.	.	.	.	.	.	.	.	8c\Lyy 8eyy\	<yy	8g\ 8b-\	.	.	.	8cc/	8c\	.	.	.	.	.	.	.
*	*	*	*	*	*	*	*	*	*	*	*Xtremolo	*	*	*	*	*	*	*	*	*	*	*	*
4F\	.	.	4F\	-ve	.	4a\	-ve	.	8Ayy\ 8fyy\	.	8f\L 8a\	<	4aa\	.	4a/	4f\	.	4f\	.	4a\	.	.	.
.	.	.	.	.	.	.	.	.	8A\Jyy 8fyy\	.	8f\J 8a\	.	.	.	.	.	.	.	.	.	.	.	.
4FF/	.	.	8r	.	.	8r	.	.	4Ayy\ 4fyy\	.	4f\ 4a\	.	8r	p	2r	2ryy	.	4r	.	4r	.	.	.
.	.	.	.	.	.	.	.	.	.	.	.	.	8qdd/	.	.	.	.	.	.	.	.	.	.
.	.	.	(>8c\L	ad	.	8cc\	ad	.	.	.	.	.	8cc\L	.	.	.	.	.	.	.	.	.	.
!	!	!	!	!	!	!LO:SIC:v= b zamiast h	!	!	!	!	!	!	!	!	!	!	!	!	!	!	!	!	!
4r	.	.	8Bn\	.	.	8b-\	.	.	4ryy	[yy	4r	[	8bn\	.	.	.	.	4r	.	4r	.	.	.
.	.	.	8c\J)	te	.	8cc\	te	.	.	.	.	.	8cc\J	.	.	.	.	.	.	.	.	.	.
=66	=66	=66	=66	=66	=66	=66	=66	=66	=66	=66	=66	=66	=66	=66	=66	=66	=66	=66	=66	=66	=66	=66	=66
!	!	!	!	!	!	!	!	!	!	!	!LO:PB:g=original	!	!	!	!	!	!	!	!	!	!	!	!
8C\	7	.	4B-X\	Su-	.	4dd\	Su-	.	8ryy	.	8r	.	8r	.	2cc/	2c\	.	8r	.	8r	.	1r	.
.	.	.	.	.	.	.	.	.	.	.	.	p	.	.	.	.	.	.	.	.	.	.	.
8r	.	.	.	.	.	.	.	.	8cyy\ 8eyy\	pyy	8g\ 8b-\	.	8g\ 8b-X\	.	.	.	.	8g\	.	8b-\	.	.	.
8c\	.	.	4G\	-spi-	.	4b-\	-spi-	.	8ryy	.	8r	.	8r	.	.	.	.	8r	.	8r	.	.	.
8r	.	.	.	.	.	.	.	.	8cyy\ 8eyy\	.	8g\ 8b-\	.	8g\ 8b-\	.	.	.	.	8g\	.	8b-\	.	.	.
!LO:PB:g=original	!	!	!	!	!	!	!	!	!	!	!	!	!	!	!	!	!	!	!	!	!	!	!
8C/	.	.	8r	.	.	8r	.	.	8ryy	.	8r	.	8r	.	2cc/	2cyy\	.	8r	.	8r	.	.	.
8r	.	.	8EL\	-ra-	.	8g\	-ra-	.	8cyy\ 8eyy\	.	8g\ 8b-\	.	8g\ 8b-\	.	.	.	.	8g\	.	8b-\	.	.	.
8c\	.	.	8G/	.	.	8b-\	.	.	8ryy	.	8r	.	8r	.	.	.	.	8r	.	8r	.	.	.
8r	.	.	8B-\J	.	.	8dd\	.	.	8cyy\ 8eyy\	.	8g\ 8b-\	.	8g\ 8b-\	.	.	.	.	8g\	.	8b-\	.	.	.
=67	=67	=67	=67	=67	=67	=67	=67	=67	=67	=67	=67	=67	=67	=67	=67	=67	=67	=67	=67	=67	=67	=67	=67
!	!	!	!LO:PB:g=original	!	!	!	!	!	!	!	!	!	!LO:PB:g=original	!	!	!	!	!LO:PB:g=original	!	!	!	!	!
8F\	8	.	4A\	.	.	4cc\	.	.	8ryy	.	8r	.	8r	.	2a/	2cyy\	.	8r	.	8r	.	1r	.
8r	.	.	.	.	.	.	.	.	8Ayy\ 8fyy\	.	8f\ 8a\	.	8f/ 8a/	.	.	.	.	8f/	.	8a\	.	.	.
8FF/	.	.	4F\	-mus	.	4a\	-mus	.	8ryy	.	8r	.	8r	.	.	.	.	8r	.	8r	.	.	.
8r	.	.	.	.	.	.	.	.	8Ayy\ 8fyy\	.	8f\ 8a\	.	8f/ 8a/	.	.	.	.	8f/	.	8a\	.	.	.
8F\	.	.	8r	.	.	8r	.	.	8ryy	.	8r	.	8r	.	2a/	2cyy\	.	8r	.	8r	.	.	.
8r	.	.	8FL\	ge-	.	8a\	ge-	.	8Ayy\ 8fyy\	.	8f\ 8a\	.	8aa\L	.	.	.	.	8f/L	.	8aL\	.	.	.
8FF/	.	.	8A\	.	.	8cc\	.	.	8ryy	.	8r	.	8ccc\	.	.	.	.	8f/	.	8cc\	.	.	.
8r	.	.	8A\J	-men-	.	8ff\	-men-	.	8Ayy\ 8fyy\	.	8f\ 8a\	.	8fff\J	.	.	.	.	8f/J	.	8a/J	.	.	.
=68	=68	=68	=68	=68	=68	=68	=68	=68	=68	=68	=68	=68	=68	=68	=68	=68	=68	=68	=68	=68	=68	=68	=68
8C\	.	.	(>8c\L	-tes	.	8ee\L	-tes	.	8cyy\ 8eyy\	.	8r	.	(>8eee\L	.	2cc/	2cyy\	.	(>8cc\L	.	(>8ee\L	.	1r	.
8r	.	.	8B-\)	.	.	8dd\J	.	.	8ryy	.	8g\ 8b-\	.	8ddd\)J	.	.	.	.	8b-\J)	.	8dd\J)	.	.	.
8c\	.	.	(>8B-\	et	.	8dd\L	et	.	8cyy\ 8eyy\	.	8r	.	(>8ddd\L	.	.	.	.	(>8b-L\	.	(>8dd\L	.	.	.
8r	.	.	8A\J)	.	.	8cc\J	.	.	8ryy	.	8g\ 8b-\	.	8ccc\J)	.	.	.	.	8a/J)	.	8cc\J)	.	.	.
!	!	!	!	!	!	!LO:PB:g=original	!	!	!	!	!	!	!	!	!	!	!	!	!	!	!	!	!
8C\	.	.	(>8AL\	flen-	.	8cc\L	flen-	.	8cyy\ 8eyy\	.	8r	.	(>8ccc\L	.	2cc/	2cyy\	.	(>8aL\	.	(>8cc\L	.	.	.
8r	.	.	8G/)	.	.	8b-\J	.	.	8ryy	.	8g\ 8b-\	.	8bb-\J)	.	.	.	.	8gJ)\	.	8b-\J)	.	.	.
8c\	.	.	(>8G/	-tes	.	8b-\L	-tes	.	8cyy\ 8eyy\	.	8r	.	(>8bb-\L	.	.	.	.	(>8gL\	.	(>8b-L\	.	.	.
8r	.	.	8E/J)	.	.	8g\J	.	.	8ryy	.	8g\ 8b-\	.	8gg\J)	.	.	.	.	8e/J)	.	8g/J)	.	.	.
=69	=69	=69	=69	=69	=69	=69	=69	=69	=69	=69	=69	=69	=69	=69	=69	=69	=69	=69	=69	=69	=69	=69	=69
!LO:TX:a:i:t=Unisono	!	!LO:DY:b	!	!	!	!	!	!	!	!	!	!	!	!	!	!	!	!	!	!LO:PB:g=original	!	!	!
8FF/'	.	f	1r	.	.	1r	.	.	8ryy	.	8r	.	8r	.	1r	1ryy	.	8r	.	8r	.	8r	.
.	.	.	.	.	.	.	.	.	.	.	.	f	.	.	.	.	.	.	.	.	.	.	.
.	.	.	.	.	.	.	.	.	.	.	.	.	.	.	.	.	.	.	.	.	f	.	.
8r	.	.	.	.	.	.	.	.	8F/'yy	.	8f'\	.	8ff\'	.	.	.	.	8f\	.	8f/	.	8ff\'	f
8GG/'	.	.	.	.	.	.	.	.	8ryy	.	8r	<	8r	.	.	.	.	8r	f	8r	.	8r	.
8r	.	.	.	.	.	.	.	.	8G/'yy	.	8g'\	.	8gg\'	.	.	.	.	8g\	.	8g/	.	8gg\'	.
8AA/'	.	.	.	.	.	.	.	.	8ryy	.	8r	.	8r	.	.	.	.	8r	.	8r	.	8r	.
8r	.	.	.	.	.	.	.	.	8A/'yy	.	8a'\	.	8aa\'	.	.	.	.	8f\	.	8a/	.	8aa\'	.
8BB-/'	.	.	.	.	.	.	.	.	8ryy	.	8r	.	8r	.	.	.	.	8r\	.	8r	.	8r	.
8r	.	.	.	.	.	.	.	.	8B-/'yy	.	8b-'\	[	8bb-\'	.	.	.	.	8g\	.	8b-\	.	8bb-\'	.
=70	=70	=70	=70	=70	=70	=70	=70	=70	=70	=70	=70	=70	=70	=70	=70	=70	=70	=70	=70	=70	=70	=70	=70
!LO:PB:g=original	!	!	!	!	!	!	!	!	!	!	!	!	!	!	!	!	!	!	!	!	!	!	!
8C'\	.	.	1r	.	.	1r	.	.	8ryy	.	8r	<	8r	.	1r	1ryy	.	8r	.	8r	.	8r	<
8r	.	.	.	.	.	.	.	.	8c\'yy	.	8cc\	.	8ccc\'	.	.	.	.	8a\	.	8cc\	.	8ccc\'	.
8D\'	.	.	.	.	.	.	.	.	8ryy	.	8r	.	8r	.	.	.	.	8r	.	8r	.	8r	.
8r	.	.	.	.	.	.	.	.	8d\'yy	.	8dd\	.	8ddd\'	.	.	.	.	8b-\	.	8dd\	.	8ddd\'	.
8C'\	.	.	.	.	.	.	.	.	8ryy	.	8r	.	8r	.	.	.	.	8r	.	8r	.	8r	.
8r	.	.	.	.	.	.	.	.	8cyy\	.	8ee\	.	8ccc\'	.	.	.	.	8a\	.	8cc\	.	8ccc\'	.
8E\'	.	.	.	.	.	.	.	.	8ryy	.	8r	.	8r	.	.	.	.	8r	.	8r	.	8r	.
8r	.	.	.	.	.	.	.	.	8eyy\	.	8ff\	[	8eee\'	.	.	.	.	8cc\	.	8ee\	.	8eee\'	[[
=71	=71	=71	=71	=71	=71	=71	=71	=71	=71	=71	=71	=71	=71	=71	=71	=71	=71	=71	=71	=71	=71	=71	=71
!	!	!LO:DY:b	!	!	!	!	!	!	!	!	!	!	!LO:PB:g=original	!	!	!	!	!	!	!	!	!LO:PB:g=original	!
4F\	8	f	2r	.	.	8ff\'L	in	.	8Ayy\ 8fyy\	.	8a\ 8ff\	[	8fff\	.	2a/	2c\	.	1r	.	2r	.	8fff\'L	[
.	.	.	.	.	.	16ee\'L	hac	.	8ryy	.	8r	.	8r	.	.	.	.	.	.	.	.	16eee\'L	.
.	.	.	.	.	.	16dd\'JJ	.	.	.	.	.	.	.	.	.	.	.	.	.	.	.	16ddd\'JJ	.
4r	.	.	.	.	.	16cc\'	la-	.	4ryy	.	4r	.	4r	.	.	.	.	.	.	.	.	16ccc\'LL	.
.	.	.	.	.	.	16b-\'	-chri-	.	.	.	.	.	.	.	.	.	.	.	.	.	.	16bb-\'	.
.	.	.	.	.	.	16a\'	-ma-	.	.	.	.	.	.	.	.	.	.	.	.	.	.	16aa\'	.
.	.	.	.	.	.	16g\'	-rum	.	.	.	.	.	.	.	.	.	.	.	.	.	.	16gg\'JJ	.
4C/	.	.	8d\'L	val-	.	2r	.	.	8cyy\ 8eyy\	.	8g\ 8b-\	.	8ddd\	.	2cc/	2c\	.	.	.	8dd\'L	p	2r	.
.	.	.	16c\'L	.	.	.	.	.	8ryy	.	8r	.	8r	.	.	.	.	.	.	16cc\'L	.	.	.
.	.	.	16B-\'JJ	.	.	.	.	.	.	.	.	.	.	.	.	.	.	.	.	16b-\'JJ	.	.	.
4r	.	.	16A'LL\	.	.	.	.	.	4ryy	.	4r	.	4r	.	.	.	.	.	.	16a/'LL	.	.	.
.	.	.	16G/'	.	.	.	.	.	.	.	.	.	.	.	.	.	.	.	.	16g/'	.	.	.
.	.	.	16F/'	-le	.	.	.	.	.	.	.	.	.	.	.	.	.	.	.	16f/'	.	.	.
.	.	.	16E/'JJ	.	.	.	.	.	.	.	.	.	.	.	.	.	.	.	.	16e/'JJ	.	.	.
=72	=72	=72	=72	=72	=72	=72	=72	=72	=72	=72	=72	=72	=72	=72	=72	=72	=72	=72	=72	=72	=72	=72	=72
!	!	!	!	!	!	!	!	!	!LO:TX:a:t=2.Vol	!	!	!	!	!	!	!	!	!	!	!	!	!	!
4C/	.	.	(>12CL\	Sal-	.	1r;	.	.	2c\; 2e\	.	2c/; 2e/	.	2e/; 2cc/	.	1cc/;	1c\	.	1e/;	.	1cc\;	.	2ccc\;	.
.	.	.	12E/	.	.	.	.	.	.	.	.	.	.	.	.	.	.	.	.	.	.	.	.
.	.	.	12G/J)	.	.	.	.	.	.	.	.	.	.	.	.	.	.	.	.	.	.	.	.
2.c\;	.	.	2.d\;	-ve	.	.	.	.	.	.	.	.	.	.	.	.	.	.	.	.	.	.	.
.	.	.	.	.	.	.	.	.	2r	.	2r	.	2r	.	.	.	.	.	.	.	.	2r	.
.	.	.	8qqc/	.	.	.	.	.	.	.	.	.	.	.	.	.	.	.	.	.	.	.	.
=73	=73	=73	=73	=73	=73	=73	=73	=73	=73	=73	=73	=73	=73	=73	=73	=73	=73	=73	=73	=73	=73	=73	=73
.	.	.	.	.	.	8qcc;/	.	.	.	.	.	.	.	.	.	.	.	.	.	.	.	.	.
2F\;	.	.	2r;	.	.	2aa\;	Sal-	.	2A\; 2f\	.	2f\; 2a\	.	2f/; 2a/	.	2a/;	2c\	.	2f/;	.	2a/;	.	2aa\;	.
.	.	.	.	.	.	16qqgg/LL	.	.	.	.	.	.	.	.	.	.	.	.	.	.	.	.	.
.	.	.	.	.	.	16qqff/	.	.	.	.	.	.	.	.	.	.	.	.	.	.	.	.	.
.	.	.	.	.	.	16qqee/	.	.	.	.	.	.	.	.	.	.	.	.	.	.	.	.	.
.	.	.	.	.	.	16qqdd/JJ	.	.	.	.	.	.	.	.	.	.	.	.	.	.	.	.	.
.	.	.	.	.	.	.	.	.	.	.	.	p:	.	.	.	.	.	.	.	.	.	.	.
2C/	.	.	2G\	Sal-	.	4.dd#X\	.	.	2c\ 2e\	p	2c/ 2e/	.	2g\ 2b-\	p	2r	2ryy	.	2g/	.	2b-\	.	2r	.
.	.	.	.	.	.	8cc\	.	.	.	.	.	.	.	.	.	.	.	.	.	.	.	.	.
=74	=74	=74	=74	=74	=74	=74	=74	=74	=74	=74	=74	=74	=74	=74	=74	=74	=74	=74	=74	=74	=74	=74	=74
!	!	!	!	!	!	!LO:PB:g=original	!	!	!LO:PB:g=original	!	!LO:LB:g=original	!	!	!	!	!	!	!	!	!LO:PB:g=original	!	!	!
4F\	.	.	2F\	-ve	.	2f/	-ve	.	8r	.	8r	.	2f/	.	8r	8ryy	.	8r	.	8r	.	2ff\	.
*	*	*	*	*	*	*	*	*	*tremolo	*	*tremolo	*	*	*	*	*	*	*	*	*	*	*	*
.	.	.	.	.	.	.	.	.	8A\L 8f\	.	8f\L 8a\	.	.	.	8a/L	8c\L	.	8f/L	.	8aL\	.	.	.
4FF/	.	.	.	.	.	.	.	.	8A\ 8f\	.	8f/ 8a/	.	.	.	8a/	8c\	.	8f/	.	8a/	.	.	.
.	.	.	.	.	.	.	.	.	8A\J 8f\	.	8f\J 8a\	.	.	.	8a/J	8c\J	.	8f/J	.	8a/J	.	.	.
4F\	.	.	2r	.	.	4r	.	.	4A\ 4f\	.	4f\ 4a\	.	4r	.	4a/	4c\	.	4f/	.	4a\	.	4r	.
4r	.	.	.	.	.	8r	.	.	4r	.	4r	.	8r	.	4r	4ryy	.	4r	.	4r	.	8r	.
!	!	!	!	!	!	!	!	!LO:DY:b	!	!	!	!	!	!	!	!	!	!	!	!	!	!	!
.	.	.	.	.	.	8cc\	O!	p	.	.	.	.	8cc\	p:	.	.	.	.	.	.	.	8ccc\	.
=75	=75	=75	=75	=75	=75	=75	=75	=75	=75	=75	=75	=75	=75	=75	=75	=75	=75	=75	=75	=75	=75	=75	=75
!LO:LB:g=original	!	!LO:DY:b	!	!	!	!	!	!	!	!	!	!	!LO:SIC:v=niejednoznaczny zapis akcent/diminuendo	!	!	!	!	!	!	!	!	!	!
!LO:TX:t=P:mixed beam:problem	!	!	!	!	!	!	!	!	!	!	!	!	!	!	!	!	!	!	!	!	!	!	!
8FF/L	.	p	1r	.	.	2cc\^	dul-	.	8r	p	8r	p	2cc\^	.	1r	1ryy	.	1r	.	1r	.	2ccc\	p<
8F\	.	.	.	.	.	.	.	.	8A\L 8f\	.	8f\L 8a\	.	.	.	.	.	.	.	.	.	.	.	.
8F\	.	.	.	.	.	.	.	.	8A\ 8f\	.	8f\ 8a\	.	.	.	.	.	.	.	.	.	.	.	.
8F\J	.	.	.	.	.	.	.	.	8A\J 8f\	.	8f\J 8a\	.	.	.	.	.	.	.	.	.	.	.	.
*tremolo	*	*	*	*	*	*	*	*	*	*	*	*	*	*	*	*	*	*	*	*	*	*	*
8F\L	6 7	.	.	.	.	2e-X/	-cis	.	8r	.	8r	.	2e-X/	.	.	.	.	.	.	.	.	2ee-X\	.
8F\	.	.	.	.	.	.	.	.	8c\L 8e-X\	.	8e-X\L 8a\	.	.	.	.	.	.	.	.	.	.	.	.
8F\	.	.	.	.	.	.	.	.	8c\ 8e-\	.	8e-/ 8a/	.	.	.	.	.	.	.	.	.	.	.	.
8F\J	.	.	.	.	.	.	.	.	8c\J 8e-\	.	8e-/J 8a/	.	.	.	.	.	.	.	.	.	.	.	.
=76	=76	=76	=76	=76	=76	=76	=76	=76	=76	=76	=76	=76	=76	=76	=76	=76	=76	=76	=76	=76	=76	=76	=76
!	!	!	!	!	!	!	!	!	!	!	!	!	!LO:PB:g=original	!	!	!	!	!	!	!	!	!	!
.	.	.	8qB-/	o!	.	.	.	.	.	.	.	.	.	.	.	.	.	.	.	.	.	.	.
8BB-/L	8	.	2B-\^<	Vir-	.	1r	.	.	8r	.	8r	.	2d/ 2b-/	.	1r	1ryy	.	2d/	.	2b-\	p:	1r	.
8B-\	.	.	.	.	.	.	.	.	8B-/L 8d/	.	8B-/L 8d/	.	.	.	.	.	.	.	.	.	.	.	.
8B-\	.	.	.	.	.	.	.	.	8B-/ 8d/	.	8B-/ 8d/	.	.	.	.	.	.	.	.	.	.	.	.
8B-\J	.	.	.	.	.	.	.	.	8B-/J 8d/	.	8B-/J 8d/	.	.	.	.	.	.	.	.	.	.	.	.
8B-\L	7	.	2A\	-go	.	.	.	.	8r	.	8r	.	2c/ 2a/	.	.	.	.	2c/	.	2a\	.	.	.
8B-\	.	.	.	.	.	.	.	.	8A\L 8f\	.	8f\L 8a\	.	.	.	.	.	.	.	.	.	.	.	.
8B-\	.	.	.	.	.	.	.	.	8A\ 8f\	.	8f/ 8a/	.	.	.	.	.	.	.	.	.	.	.	.
8B-\J	.	.	.	.	.	.	.	.	8A\J 8f\	.	8f/J 8a/	.	.	.	.	.	.	.	.	.	.	.	[
=77	=77	=77	=77	=77	=77	=77	=77	=77	=77	=77	=77	=77	=77	=77	=77	=77	=77	=77	=77	=77	=77	=77	=77
!	!	!	!	!	!	!	!	!	!	!	!	!	!	!	!	!	!	!	!	!	!	!LO:PB:g=original	!
8C/L	6 8	.	(>4.A\^<	Vir-	.	(>4.a\	Vir-	.	8r	.	8r	.	4.c/ 4.a/	.	2cc/	2c\	.	8r	.	8r	.	(>4.aa\	p
8c\	.	.	.	.	.	.	.	.	8c\L 8e\	.	8g\L 8b-\	.	.	.	.	.	.	8g/L	.	8b-\L	.	.	.
8c\	.	.	.	.	.	.	.	.	8c\ 8e\	.	8g\ 8b-\	.	.	.	.	.	.	8g/	.	8b-\	.	.	.
8c\J	5	.	8G\)	-go	.	8g\)	-go	.	8c\J 8e\	.	8g\J 8b-\	.	8g/	.	.	.	.	8g/J	.	8b-\J	.	8gg\)	.
8C/L	6 8	.	(>4.A\^<	Ma-	.	(>4.a\	Ma-	.	8r	.	8r	.	4.c/ 4.a/	.	2cc/	2cyy\	.	8r	.	8r	.	(>4.aa\	.
8C/	5	.	.	.	.	.	.	.	8c\L 8e\	.	8g\L 8b-\	.	.	.	.	.	.	8g/L	.	8b-\L	.	.	.
8C/	.	.	.	.	.	.	.	.	8c\ 8e\	.	8g/ 8b-/	.	.	.	.	.	.	8g/	.	8b-\	.	.	.
8C/J	.	.	8G\)	-ry-	.	8g\)	-ry-	.	8c\J 8e\	.	8g/J 8b-/	.	8e/ 8g/	.	.	.	.	8g/J	.	8b-\J	.	8gg\)	.
=78	=78	=78	=78	=78	=78	=78	=78	=78	=78	=78	=78	=78	=78	=78	=78	=78	=78	=78	=78	=78	=78	=78	=78
!	!	!	!LO:PB:g=original	!	!	!	!	!	!	!	!	!	!	!	!	!	!	!	!	!	!	!	!
8r	.	.	2F/	-a	.	2f/	-a	.	8r	<	8r	.	2f/	.	8r	8ryy	.	8r	.	8r	.	2ff\	.
8FL\	.	.	.	.	.	.	.	.	8A\L 8f\	.	8f\L 8a\	<	.	.	8a/L	8c\L	.	8f/L	.	8aL\	.	.	.
8C/	.	.	.	.	.	.	.	.	8A\ 8f\	.	8f/ 8a/	.	.	.	8a/	8c\	.	8f/	.	8a/	.	.	.
8AA/J	.	.	.	.	.	.	.	.	8A\J 8f\	.	8f/J 8a/	.	.	.	8a/J	8c\J	.	8f/J	.	8a/J	.	.	.
4FF/	.	.	4r	.	.	2r	.	.	4A\ 4f\	.	4f\ 4a\	.	4r	.	4a/	4c\	.	4f\	.	4a\	.	2r	.
4r	.	.	8r	.	.	.	.	.	4r	[	4r	[	8r	.	4r	4ryy	.	4r	.	8r	.	.	.
.	.	.	8c\	o!	.	.	.	.	.	.	.	.	8cc\	.	.	.	.	.	.	8cc\	p	.	.
=79	=79	=79	=79	=79	=79	=79	=79	=79	=79	=79	=79	=79	=79	=79	=79	=79	=79	=79	=79	=79	=79	=79	=79
!LO:TX:t=P:mixed beam:problem	!	!LO:DY:b	!	!	!	!LO:PB:g=original	!	!	!	!	!LO:PB:g=original	!	!LOSIC:v=niejednoznaczny zapis akcent/diminuendo	!	!	!	!	!	!	!	!	!	!
8FF/L	.	p	2c\^<	Cle-	.	1r	.	.	8r	p	8r	p	2cc\^<	p	1r	1ryy	.	2r	.	2cc\^<	.	1r	.
8F\	.	.	.	.	.	.	.	.	8A\L 8f\	.	8f\L 8a\	.	.	.	.	.	.	.	.	.	.	.	.
8F\	.	.	.	.	.	.	.	.	8A\ 8f\	.	8f/ 8a/	.	.	.	.	.	.	.	.	.	.	.	.
8F\J	.	.	.	.	.	.	.	.	8A\J 8f\	.	8f\J 8a\	.	.	.	.	.	.	.	.	.	.	.	.
8F\L	-7	.	2E-X/	-mens	.	.	.	.	8r	.	8r	.	2e-X/	.	.	.	.	2e-X/	.	2e-X/	.	.	.
!	!	!	!	!	!	!	!	!	!LO:SIC:v=bemol ces zamiast es	!	!	!	!	!	!	!	!	!	!	!	!	!	!
8F\	.	.	.	.	.	.	.	.	8c\L 8e-X\	.	8e-X\L 8a\	.	.	.	.	.	.	.	.	.	.	.	.
8F\	.	.	.	.	.	.	.	.	8c\ 8e-\	.	8e-/ 8a/	.	.	.	.	.	.	.	.	.	.	.	.
8F\J	.	.	.	.	.	.	.	.	8c\J 8e-\	.	8e-/J 8a/	.	.	.	.	.	.	.	.	.	.	.	.
=80	=80	=80	=80	=80	=80	=80	=80	=80	=80	=80	=80	=80	=80	=80	=80	=80	=80	=80	=80	=80	=80	=80	=80
!	!	!	!	!	!	!	!	!	!LO:PB:g=original	!	!	!	!LO:SIC:v=niejednoznaczny zapis akcent/diminuendo	!	!	!	!	!LO:LB:g=original	!	!	!	!	!
.	.	.	.	.	.	8qb-/	O!	.	.	.	.	.	.	.	.	.	.	.	.	.	.	.	.
8BB-/L	8	.	1r	.	.	2b-\	Pi-	.	8r	.	8r	.	2d/^ 2b-/	.	1r	1ryy	.	1r	.	1r	.	2bb-\^<	.
8B-\	.	.	.	.	.	.	.	.	8B-/L 8d/	.	8B-/L 8d/	.	.	.	.	.	.	.	.	.	.	.	.
8B-\	.	.	.	.	.	.	.	.	8B-/ 8d/	.	8B-/ 8d/	.	.	.	.	.	.	.	.	.	.	.	.
8B-\J	.	.	.	.	.	.	.	.	8B-/J 8d/	.	8B-/J 8d/	.	.	.	.	.	.	.	.	.	.	.	.
8B-\L	7	.	.	.	.	2a\	-a	.	8r	.	8r	.	2c/ 2a/	.	.	.	.	.	.	.	.	2aa\	.
8B-\	.	.	.	.	.	.	.	.	8A\L 8f\	.	8f\L 8a\	.	.	.	.	.	.	.	.	.	.	.	.
8B-\	.	.	.	.	.	.	.	.	8A\ 8f\	.	8f/ 8a/	.	.	.	.	.	.	.	.	.	.	.	.
8B-\J	.	.	.	.	.	.	.	.	8A\J 8f\	.	8f/J 8a/	.	.	.	.	.	.	.	.	.	.	.	.
=81	=81	=81	=81	=81	=81	=81	=81	=81	=81	=81	=81	=81	=81	=81	=81	=81	=81	=81	=81	=81	=81	=81	=81
!LO:PB:g=original	!	!	!	!	!	!	!	!	!	!	!	!	!LO:PB:g=original	!	!	!	!	!	!	!	!	!	!
8C/L	6 8	.	(>4.A\	Vir-	.	4.a\	Vir-	.	8r	.	8r	.	4.c/ 4.a/	.	2cc/	2c\	.	8r	.	8r	.	(>4.aa\	.
*	*	*	*	*	*	*	*	*	*	*	*	*	*	*	*	*	*	*	*	*tremolo	*	*	*
8c\	.	.	.	.	.	.	.	.	8c\L 8e\	.	8g\L 8b-\	.	.	.	.	.	.	8g/L	.	8b-\L	.	.	.
8c\	.	.	.	.	.	.	.	.	8c\ 8e\	.	8g/ 8b-/	.	.	.	.	.	.	8g/	.	8b-\	.	.	.
8c\J	5	.	8G\)	-go	.	8g\	-go	.	8c\J 8e\	.	8g/J 8b-/	.	8g/	.	.	.	.	8g/J	.	8b-\J	.	8gg\)	.
8C/L	6 8	.	(<4.D/	Ma-	.	4.d\	Ma-	.	8r	.	8r	.	4.d/	.	2cc/	2c\	.	8r	.	8r	.	(>4.dd\	.
8C/	5	.	.	.	.	.	.	.	8c\L 8e\	<	8g\L 8b-\	.	.	.	.	.	.	8g/L	.	8b-\L	.	.	.
8C/	.	.	.	.	.	.	.	.	8c\ 8e\	.	8g/ 8b-/	.	.	.	.	.	.	8g/	.	8b-\	.	.	.
8C/J	.	.	8E/)	-ry-	.	8e\	-ry-	.	8c\J 8e\	.	8g/J 8b-/	.	8e/	.	.	.	.	8g/J	.	8b-\J	.	8ee\)	.
=82	=82	=82	=82	=82	=82	=82	=82	=82	=82	=82	=82	=82	=82	=82	=82	=82	=82	=82	=82	=82	=82	=82	=82
4F\	.	.	2F/	-a	.	2f/	-a	.	8r	.	8r	.	2.f/	.	8r	8ryy	.	8r	.	8r	.	2ff\	.
.	.	.	.	.	.	.	.	.	8F/L	.	8f\L 8a\	.	.	.	8a/L	8c\L	.	8f/L	.	8aL\	.	.	.
4FF/	.	.	.	.	.	.	.	.	8A/	.	8f/ 8a/	.	.	.	8a/	8c\	.	8f/	.	8a/	.	.	.
.	.	.	.	.	.	.	.	.	8c\J	.	8f/J 8a/	.	.	.	8a/J	8c\J	.	8f/J	.	8a/J	.	.	.
4F\	.	.	2r	.	.	2r	.	.	4A\ 4f\	.	4f\ 4a\	.	.	.	4a/	4c\	.	4f/	.	8r	.	2r	.
!	!	!	!	!	!	!	!	!	!	!	!	!	!	!	!	!	!	!	!	!LO:TX:a:i:t=Solo	!	!	!
.	.	.	.	.	.	.	.	.	.	.	.	.	.	.	.	.	.	.	.	8fL\	.	.	.
4r	.	.	.	.	.	.	.	.	4r	[[	4r	.	4r	.	4r	4ryy	.	4r	.	8a/	.	.	.
.	.	.	.	.	.	.	.	.	.	.	.	.	.	.	.	.	.	.	.	8cc\J	p	.	.
=83	=83	=83	=83	=83	=83	=83	=83	=83	=83	=83	=83	=83	=83	=83	=83	=83	=83	=83	=83	=83	=83	=83	=83
!	!	!	!	!	!	!	!	!	!	!	!	!	!	!	!	!	!	!	!	!	!	!LO:PB:g=original	!
.	.	.	.	.	.	.	.	.	.	.	.	.	.	.	.	.	.	.	.	8qcc/	.	.	.
4FF/	8	.	1r	.	.	1r	.	.	8r	p:	8r	p	8r	.	1r	1ryy	.	1r	.	2ff\^<	.	1r	.
*	*	*	*	*	*	*	*	*	*	*	*	*	*tremolo	*	*	*	*	*	*	*	*	*	*
.	.	.	.	.	.	.	.	.	8A\L 8f\	.	8f/L 8a/	.	8f/L 8a/	.	.	.	.	.	.	.	.	.	.
4F\	.	.	.	.	.	.	.	.	8A\ 8f\	.	8f/ 8a/	.	8f/ 8a/	.	.	.	.	.	.	.	.	.	.
.	.	.	.	.	.	.	.	.	8A\J 8f\	.	8f/J 8a/	.	8f/J 8a/	.	.	.	.	.	.	.	.	.	.
4FF/	.	.	.	.	.	.	.	.	4A\ 4f\	.	4f/ 4a/	.	4f/ 4a/	.	.	.	.	.	.	16ff\LL	.	.	.
.	.	.	.	.	.	.	.	.	.	.	.	.	.	.	.	.	.	.	.	16ee\	.	.	.
.	.	.	.	.	.	.	.	.	.	.	.	.	.	.	.	.	.	.	.	16aa\	.	.	.
.	.	.	.	.	.	.	.	.	.	.	.	.	.	.	.	.	.	.	.	16gg\JJ	.	.	.
4r	.	.	.	.	.	.	.	.	4r	.	4r	.	4r	.	.	.	.	.	.	16ff\LL	.	.	.
.	.	.	.	.	.	.	.	.	.	.	.	.	.	.	.	.	.	.	.	16ee\	.	.	.
.	.	.	.	.	.	.	.	.	.	.	.	.	.	.	.	.	.	.	.	16dd\	.	.	.
.	.	.	.	.	.	.	.	.	.	.	.	.	.	.	.	.	.	.	.	16cc\JJ	.	.	.
=84	=84	=84	=84	=84	=84	=84	=84	=84	=84	=84	=84	=84	=84	=84	=84	=84	=84	=84	=84	=84	=84	=84	=84
!	!	!	!	!	!	!	!	!	!	!	!LO:PB:g=original	!	!	!	!	!	!	!	!	!	!	!	!
.	.	.	.	.	.	.	.	.	.	.	.	.	.	.	.	.	.	.	.	8qg/	.	.	.
4GG/	6	.	1r	.	.	1r	.	.	8r	.	8r	.	8r	.	1r	1ryy	.	1r	.	8ee\L	.	1r	.
.	.	.	.	.	.	.	.	.	8c\L 8e\	.	8g\L 8b-\	.	8g/L 8b-/	.	.	.	.	.	.	8dd\J	.	.	.
4G\	.	.	.	.	.	.	.	.	8c\ 8e\	.	8g/ 8b-/	.	8g/ 8b-/	.	.	.	.	.	.	4g/	.	.	.
.	.	.	.	.	.	.	.	.	8c\J 8e\	.	8g\J 8b-\	.	8g/J 8b-/	.	.	.	.	.	.	.	.	.	.
4GG/	.	.	.	.	.	.	.	.	4c\ 4e\	.	4g\ 4b-\	.	4g/ 4b-/	.	.	.	.	.	.	8r	.	.	.
.	.	.	.	.	.	.	.	.	.	.	.	.	.	.	.	.	.	.	.	8b-\L	.	.	.
4r	.	.	.	.	.	.	.	.	4r	.	4r	.	4r	.	.	.	.	.	.	8cc\	.	.	.
.	.	.	.	.	.	.	.	.	.	.	.	.	.	.	.	.	.	.	.	8dd\J	.	.	.
=85	=85	=85	=85	=85	=85	=85	=85	=85	=85	=85	=85	=85	=85	=85	=85	=85	=85	=85	=85	=85	=85	=85	=85
!	!	!	!	!	!	!	!	!	!	!	!	!	!	!	!	!	!	!	!	!LO:PB:g=original	!	!	!
4FF/	.	.	1r	.	.	1r	.	.	8r	.	8r	.	8r	.	1r	1ryy	.	1r	.	8cc\L	.	1r	.
.	.	.	.	.	.	.	.	.	8A\L 8f\	.	8f\L 8a\	.	8f/L 8a/	.	.	.	.	.	.	8a/J	.	.	.
.	.	.	.	.	.	.	.	.	.	.	.	.	.	.	.	.	.	.	.	8qcc/	.	.	.
4F\	.	.	.	.	.	.	.	.	8A\ 8f\	.	8f/ 8a/	.	8f/ 8a/	.	.	.	.	.	.	4.aa\^<	.	.	.
.	.	.	.	.	.	.	.	.	8A\J 8f\	.	8f/J 8a/	.	8f/J 8a/	.	.	.	.	.	.	.	.	.	.
4FF/	.	.	.	.	.	.	.	.	4A\ 4f\	.	4f\ 4a\	.	4f/ 4a/	.	.	.	.	.	.	.	.	.	.
.	.	.	.	.	.	.	.	.	.	.	.	.	.	.	.	.	.	.	.	16gg\LL	.	.	.
.	.	.	.	.	.	.	.	.	.	.	.	.	.	.	.	.	.	.	.	16ff\JJ	.	.	.
4r	.	.	.	.	.	.	.	.	4r	.	4r	.	4r	.	.	.	.	.	.	16ee\LL	.	.	.
.	.	.	.	.	.	.	.	.	.	.	.	.	.	.	.	.	.	.	.	16dd\	.	.	.
.	.	.	.	.	.	.	.	.	.	.	.	.	.	.	.	.	.	.	.	16cc\	.	.	.
.	.	.	.	.	.	.	.	.	.	.	.	.	.	.	.	.	.	.	.	16bn\JJ	.	.	.
=86	=86	=86	=86	=86	=86	=86	=86	=86	=86	=86	=86	=86	=86	=86	=86	=86	=86	=86	=86	=86	=86	=86	=86
!	!	!	!	!	!	!	!	!	!LO:LB:g=original	!	!	!	!LO:PB:g=original	!	!	!	!	!	!	!	!	!	!
4c\	.	.	1r	.	.	1r	.	.	8c\ 8e\	.	8g\ 8b-\	.	8c/ 8e/	.	1r	1ryy	.	1r	.	16bn\LL	.	1r	.
.	.	.	.	.	.	.	.	.	.	.	.	.	.	.	.	.	.	.	.	16cc\	.	.	.
.	.	.	.	.	.	.	.	.	8r	.	8r	.	8r	.	.	.	.	.	.	16cc#X\	.	.	.
.	.	.	.	.	.	.	.	.	.	.	.	.	.	.	.	.	.	.	.	16dd\JJ	.	.	.
4C/	.	.	.	.	.	.	.	.	8c\ 8e\	.	8g\ 8b-\	.	8g\ 8b-\	.	.	.	.	.	.	16dd\LL	.	.	.
!	!	!	!	!	!	!	!	!	!	!	!	!	!	!	!	!	!	!	!	!LO:SIC:v=cis zamiast c	!	!	!
.	.	.	.	.	.	.	.	.	.	.	.	.	.	.	.	.	.	.	.	16cc#\	.	.	.
.	.	.	.	.	.	.	.	.	8r	.	8r	.	8r	.	.	.	.	.	.	16b-X\	.	.	.
.	.	.	.	.	.	.	.	.	.	.	.	.	.	.	.	.	.	.	.	16g/JJ	.	.	.
8C/	.	.	.	.	.	.	.	.	8c\ 8e\	.	8g\ 8b-\	.	8cc\ 8ee\	.	.	.	.	.	.	16r	.	.	.
.	.	.	.	.	.	.	.	.	.	.	.	.	.	.	.	.	.	.	.	16ee\LL	.	.	.
8r	.	.	.	.	.	.	.	.	8r	.	8r	.	8r	.	.	.	.	.	.	16dd\	.	.	.
.	.	.	.	.	.	.	.	.	.	.	.	.	.	.	.	.	.	.	.	16cc#\JJ	.	.	.
8C/	.	.	.	.	.	.	.	.	8c\ 8e\	.	8g\ 8b-\	.	8cc\ 8bb-\	.	.	.	.	.	.	16r	.	.	.
.	.	.	.	.	.	.	.	.	.	.	.	.	.	.	.	.	.	.	.	16bb-\LL	.	.	.
8r	.	.	.	.	.	.	.	.	8r	.	8r	.	8r	.	.	.	.	.	.	16aa\	.	.	.
.	.	.	.	.	.	.	.	.	.	.	.	.	.	.	.	.	.	.	.	16gg\JJ	.	.	.
=87	=87	=87	=87	=87	=87	=87	=87	=87	=87	=87	=87	=87	=87	=87	=87	=87	=87	=87	=87	=87	=87	=87	=87
!LO:PB:g=original	!	!	!	!	!	!	!	!	!	!	!	!	!	!	!	!	!	!LO:LB:g=original	!	!	!	!	!
4F\	.	.	1r	.	.	1r	.	.	8A\ 8f\	.	8f/'L	f	8ff\'L	ff	1a/	1c\	.	4f/	.	4ff\	.	8ff\'L	f
.	.	.	.	.	.	.	.	.	8r	.	8a/'	.	8aa\'	.	.	.	.	.	.	.	.	8aa\'	.
4r	.	.	.	.	.	.	.	.	4r	.	8b-\'	.	8bb-\'	<	.	.	.	4r	.	4r	.	8bb-\'	.
.	.	.	.	.	.	.	.	.	.	.	8bn\'J	.	8bbn\'J	.	.	.	.	.	.	.	.	8bbn\'J	.
2r	.	.	.	.	.	.	.	.	2r	.	8cc\'L	.	8ccc\'L	.	.	.	.	2r	.	2r	.	8ccc\'L	.
.	.	.	.	.	.	.	.	.	.	.	8dd\'	.	8ddd\'	.	.	.	.	.	.	.	.	8ddd\'	.
.	.	.	.	.	.	.	.	.	.	.	8ee\'	.	8eee\'	.	.	.	.	.	.	.	.	8eee\'	.
.	.	.	.	.	.	.	.	.	.	ff	8ff\'J	.	8fff\'J	[[	.	.	.	.	.	.	.	8fff\'J	.
=88	=88	=88	=88	=88	=88	=88	=88	=88	=88	=88	=88	=88	=88	=88	=88	=88	=88	=88	=88	=88	=88	=88	=88
8C/'L	.	.	1r	.	.	1r	.	.	8C/'L	.	2c/ 2e/	.	1e/ 1cc/	[	1cc/	1c\	.	8c/'L	f	8cc\'L	.	1r	.
8D\'	.	.	.	.	.	.	.	.	8D/'	.	.	.	.	.	.	.	.	8d/'	.	8dd\'	ff	.	.
!	!	!LO:DY:b	!	!	!	!	!	!	!	!	!	!	!	!	!	!	!	!	!	!	!	!	!
8E\'	.	ff	.	.	.	.	.	.	8E/'	.	.	.	.	.	.	.	.	8e/'	.	8ee\'	.	.	.
8F\'J	.	.	.	.	.	.	.	.	8F/'J	.	.	.	.	.	.	.	.	8f/'J	.	8ff\'J	.	.	.
8G\'L	.	.	.	.	.	.	.	.	8G/'L	.	2r	.	.	.	.	.	.	8g'L\	.	8gg\'L	.	.	.
8A\'	.	.	.	.	.	.	.	.	8A/'	.	.	.	.	.	.	.	.	8a/'	.	8aa\'	.	.	.
8B-\'	.	.	.	.	.	.	.	.	8B-/'	.	.	.	.	.	.	.	.	8b-\'	.	8bb-\'	.	.	.
8c\'J	.	.	.	.	.	.	.	.	8c\'J	.	.	.	.	.	.	.	.	8cc\'J	.	8ccc\'J	.	.	.
=89	=89	=89	=89	=89	=89	=89	=89	=89	=89	=89	=89	=89	=89	=89	=89	=89	=89	=89	=89	=89	=89	=89	=89
!	!	!	!	!	!	!	!	!	!	!	!LO:PB:g=original	!	!	!	!	!LO:PB:g=original	!	!	!	!LO:PB:g=original	!	!	!
4F\	.	.	1r	.	.	1r	.	.	4A\ 4f\	.	8f/'L	.	8ff\'L	.	1a/	1c\	.	4f/	.	1r	.	8ff\'L	f
.	.	.	.	.	.	.	.	.	.	.	8a/'	.	8aa\'	.	.	.	.	.	.	.	.	8aa\'	.
4r	.	.	.	.	.	.	.	.	4r	.	8b-\'	.	8bb-\'	.	.	.	.	4r	.	.	.	8bb-\'	.
.	.	.	.	.	.	.	.	.	.	.	8bn\'J	.	8bbn\'J	<	.	.	.	.	.	.	.	8bbn\'J	.
2r	.	.	.	.	.	.	.	.	2r	.	8cc\'L	.	8ccc\'L	.	.	.	.	2r	.	.	.	8ccc\'L	.
.	.	.	.	.	.	.	.	.	.	.	8dd\'	.	8ddd\'	.	.	.	.	.	.	.	.	8ddd\'	.
.	.	.	.	.	.	.	.	.	.	.	8ee\'	.	8eee\'	.	.	.	.	.	.	.	.	8eee\'	.
.	.	.	.	.	.	.	.	.	.	.	8ff\'J	.	8fff\'J	[[	.	.	.	.	.	.	.	8fff\'J	.
=90	=90	=90	=90	=90	=90	=90	=90	=90	=90	=90	=90	=90	=90	=90	=90	=90	=90	=90	=90	=90	=90	=90	=90
!	!	!	!	!	!	!	!	!	!	!	!	!	!LO:PB:g=original	!	!	!	!	!	!	!	!	!	!
8C/'L	.	.	1r	.	.	1r	.	.	8C/'L	.	2c/ 2e/	.	1e/ 1cc/	[	1cc/	1c\	.	8c/'L	f	8cc\'L	.	1r	.
8D\'	.	.	.	.	.	.	.	.	8D/'	.	.	.	.	.	.	.	.	8d/'	.	8dd\'	ff	.	.
!	!	!LO:DY:b	!	!	!	!	!	!	!	!	!	!	!	!	!	!	!	!	!	!	!	!	!
8E\'	.	ff	.	.	.	.	.	.	8E/'	.	.	.	.	.	.	.	.	8e/'	.	8ee\'	.	.	.
8F\'J	.	.	.	.	.	.	.	.	8F/'J	.	.	.	.	.	.	.	.	8f/'J	.	8ff\'J	.	.	.
8G\'L	.	.	.	.	.	.	.	.	8G/'L	.	2r	.	.	.	.	.	.	8g'L\	.	8gg\'L	.	.	.
8A\'	.	.	.	.	.	.	.	.	8A/'	.	.	.	.	.	.	.	.	8a/'	.	8aa\'	.	.	.
*	*	*	*	*	*	*	*	*	*	*	*	*	*	*	*	*	*	*	*	*	*^	*	*
8B-\'	.	.	.	.	.	.	.	.	8B-/'	.	.	.	.	.	.	.	.	8b-\'	.	8bb-\'	>	.	.	.
!	!	!LO:HP:b	!	!	!	!	!	!	!	!	!	!	!	!	!	!	!	!	!	!	!	!	!	!
8c\'J	.	>	.	.	.	.	.	.	8c\'J	.	.	.	.	.	.	.	.	8cc\'J	.	8ccc\'J	.	.	.	.
=91	=91	=91	=91	=91	=91	=91	=91	=91	=91	=91	=91	=91	=91	=91	=91	=91	=91	=91	=91	=91	=91	=91	=91	=91
.	.	.	.	.	.	.	.	.	.	.	.	.	8qgg/	f	.	.	.	.	.	.	.	.	.	.
4.F\	.	.	1r	.	.	1r	.	.	4.f\	f	4.f/	f	4.ff\	>	4.ff/	1f\	.	4.f/	>	4.ff\	.	f	4.fff\^<	f
8E\	.	.	.	.	.	.	.	.	8e\	.	8e/	.	8ee\	.	8ee/	.	.	8e/	.	8ee\	.	.	8eee\	.
8F\L	.	]	.	.	.	.	.	.	8f\L	.	8f/L	.	8ff\L	.	8ff/L	.	.	8f/L	.	8ff\L	.	.	8fff\L	.
8C#X/J	.	.	.	.	.	.	.	.	8c#X\J	.	8c#X/J	.	8cc#X\J	.	8cc#X/J	.	.	8c#X/J	]	8cc#X\J	]	.	8ccc#X\J	.
*	*	*	*	*	*	*	*	*	*	*	*	*	*	*	*	*	*	*	*	*	*v	*v	*	*
8DL\	.	.	.	.	.	.	.	.	8dL\	.	8d/L	.	8dd\L	]	8dd/L	.	.	8d/L	.	8dd\L	.	8ddd\L	.
8AA/J	.	.	.	.	.	.	.	.	8A/J	[[	8A/J	<	8a/J	.	8a/J	.	.	8a/J	.	8a/J	.	8aa\J	.
=92	=92	=92	=92	=92	=92	=92	=92	=92	=92	=92	=92	=92	=92	=92	=92	=92	=92	=92	=92	=92	=92	=92	=92
!LO:PB:g=original	!	!	!	!	!	!	!	!	!	!	!	!	!	!	!LO:TX:a:t=sic!&colon;1 ćwierćnuta z kropką	!	!LO:PB:g=original	!	!	!	!LO:PB:g=original	!	!
8B-\L	.	.	1r	.	.	1r	.	.	8B-L\	[	8B-/L	.	8b-L\	.	8b-/L	4.c\	<	8b-L\	.	8b-L\	.	8bb-\L	.
8A\J	.	.	.	.	.	.	.	.	8A/J	<	8A/J	.	8a/J	.	8a/J	.	.	8a/J	.	8a/J	.	8aa\J	.
!	!	!LO:HP:b	!	!	!	!	!	!	!	!	!	!	!	!	!LO:TX:a:t=sic!&colon;3 ćwierćnuta	!	!	!	!	!	!	!	!
!	!	!	!	!	!	!	!	!	!	!	!	!	!	!	!LO:N:vis=4	!	!	!	!	!	!	!	!
4.G\	.	<	.	.	.	.	.	.	4.G/	.	4.G/	.	(>4.g/	.	4.g/	.	.	(<4.g\	.	4.g\	.	4.gg\^<	.
.	.	.	.	.	.	.	.	.	.	.	.	.	.	.	.	4ryy	.	.	.	.	.	.	.
8CL/	.	.	.	.	.	.	.	.	8C/L	.	8c/L	.	8cc\L	.	8c/L	4.ryy	.	8c/L	.	8cc\L	<	8ccc\'L	.
8D\	.	.	.	.	.	.	.	.	8D/	.	8d/	.	8dd\	.	8d/	.	.	8d/	.	8dd\	.	8ddd\'	.
8E\J	.	[[	.	.	.	.	.	.	8E/J	[[	8e/J	[[	8ee\J)	.	8e/J	.	[	8e/J)	.	8ee\J	[[	8eee\'J	.
=93	=93	=93	=93	=93	=93	=93	=93	=93	=93	=93	=93	=93	=93	=93	=93	=93	=93	=93	=93	=93	=93	=93	=93
4F\	.	.	1r	.	.	1r	.	.	4A\ 4f\	[	4A/ 4f/	[	4a\ 4ff\	.	4a/	4c\	.	4a\	f	4ff\	f	4fff\	f
!	!	!LO:DY:b	!	!	!	!	!	!	!	!	!	!	!	!	!	!	!	!	!	!	!	!	!
4C/	.	f	.	.	.	.	.	.	4c\ 4e\	.	4c/ 4e/	.	4g\ 4b-\ 4ee\	.	4cc/	4c\	.	4g\	.	4ee\	.	4eee\	.
4F\	.	.	.	.	.	.	.	.	4A\ 4f\	.	4A/ 4f/	.	4a\ 4ff\	.	4a/	4f\	.	4a\	.	4ff\	.	4fff\	.
!	!	!LO:DY:b	!	!	!	!	!	!	!	!	!	!	!	!	!	!	!	!	!	!	!	!	!
4C/	.	f	.	.	.	.	.	.	4c\ 4e\	.	4c/ 4e/	.	4g\ 4b-\ 4ee\	.	4cc/	4c\	.	4g\	.	4ee\	.	4eee\	.
=94	=94	=94	=94	=94	=94	=94	=94	=94	=94	=94	=94	=94	=94	=94	=94	=94	=94	=94	=94	=94	=94	=94	=94
!	!	!	!	!	!	!	!	!	!	!	!LO:PB:g=original	!	!	!	!	!LO:PB:g=original	!	!	!	!LO:PB:g=original	!	!	!
4F\	.	.	1r	.	.	1r	.	.	4A\ 4f\	.	4A/ 4f/	.	4a\ 4ff\	.	4a/	4c\	.	4a\	.	4ff\	.	4fff\	.
4F\	.	.	.	.	.	.	.	.	4A\ 4f\	.	4A/ 4f/	.	8ccL/	.	4a/	4c\	.	4a\	.	4ff\	.	4aaa\	.
.	.	.	.	.	.	.	.	.	.	.	.	.	8cc\J	.	.	.	.	.	.	.	.	.	.
4F\	.	.	.	.	.	.	.	.	4A\ 4f\	.	4A/ 4f/	.	4a\ 4ff\	.	4a/	4c\	.	4a\	.	4ff\	.	4fff\	.
4r	.	.	.	.	.	.	.	.	4r	.	4r	.	4r	.	4r	4ryy	.	4r	.	4r	.	4r	.
*	*	*	*	*	*	*	*	*	*	*	*	*	*	*	*v	*v	*	*	*	*	*	*	*
==	==	==	==	==	==	==	==	==	==	==	==	==	==	==	==	==	==	==	==	==	==	==
*-	*-	*-	*-	*-	*-	*-	*-	*-	*-	*-	*-	*-	*-	*-	*-	*-	*-	*-	*-	*-	*-	*-
!!!system-decoration: s1,s2,s3,s4,s5,s6,s7,s8,s9,s10
!!!RDF**kern: > = above
!!!RDF**kern: < = below
!!!ENC: Leszek Kubiak
!!!END: data 2020-03-05
